; generated by PrusaSlicer 2.4.0+win64 on 2022-02-08 at 21:32:51 UTC


;
;

;
;
; 

; external perimeters extrusion width = 0.45mm
; perimeters extrusion width = 0.45mm
; infill extrusion width = 0.45mm
; solid infill extrusion width = 0.45mm
; top infill extrusion width = 0.40mm
; first layer extrusion width = 0.42mm

; external perimeters extrusion width = 0.45mm
; perimeters extrusion width = 0.45mm
; infill extrusion width = 0.45mm
; solid infill extrusion width = 0.45mm
; top infill extrusion width = 0.40mm
; first layer extrusion width = 0.42mm

M73 P0 R104
M201 X2500 Y2500 Z400 E5000 ; sets maximum accelerations, mm/sec^2
M203 X180 Y180 Z12 E80 ; sets maximum feedrates, mm/sec
M204 P1250 R1250 T2500 ; sets acceleration (P, T) and retract acceleration (R), mm/sec^2
M205 X8.00 Y8.00 Z2.00 E10.00 ; sets the jerk limits, mm/sec
M205 S0 T0 ; sets the minimum extruding and travel feed rate, mm/sec
M107
;TYPE:Custom
M862.3 P "MINI" ; printer model check
G90 ; use absolute coordinates
M83 ; extruder relative mode
M104 S170 ; set extruder temp for bed leveling
M140 S85 ; set bed temp
M109 R170 ; wait for bed leveling temp
M190 S85 ; wait for bed temp
M204 T1250 ; set travel acceleration
G28 ; home all without mesh bed level
G29 ; mesh bed leveling 
M204 T2500 ; restore travel acceleration
M104 S240 ; set extruder temp
G92 E0
G1 Y-2 X179 F2400
G1 Z3 F720
M109 S240 ; wait for extruder temp

; intro line
G1 X170 F1000
G1 Z0.2 F720
G1 X110 E8 F900
G1 X40 E10 F700
G92 E0

M221 S95 ; set flow
G21 ; set units to millimeters
G90 ; use absolute coordinates
M83 ; use relative distances for extrusion
M900 K0.2 ; Filament gcode
M107
;LAYER_CHANGE
;Z:0.2
;HEIGHT:0.2
;BEFORE_LAYER_CHANGE
G92 E0.0
;0.2


G1 E-3.2 F2400
G1 Z.2 F720
;AFTER_LAYER_CHANGE
;0.2
G1 Z.4
G1 X57.232 Y66.862 F9000
G1 Z.2 F720
G1 E3.2 F1500
M204 P800
;TYPE:Skirt/Brim
;WIDTH:0.42
G1 F1200
G1 X76.434 Y56.747 E.68047
G1 X77.253 Y56.435 E.02748
G1 X78.042 Y56.339 E.02492
G1 X102.165 Y56.348 E.75638
G1 X102.916 Y56.48 E.02388
G1 X103.566 Y56.747 E.02205
G1 X122.768 Y66.862 E.68047
G1 X123.893 Y68.152 E.05369
G1 X139.855 Y112.007 E1.46328
G1 X139.776 Y113.824 E.05704
M73 P0 R103
G1 X136.256 Y121.372 E.26113
G1 X134.915 Y122.602 E.05704
G1 X128.042 Y125.103 E.22932
G1 X127.229 Y125.246 E.02588
G1 X52.771 Y125.246 E2.33458
G1 X51.958 Y125.103 E.02588
G1 X45.085 Y122.602 E.22932
G1 X43.744 Y121.372 E.05704
G1 X40.411 Y114.225 E.24726
G1 X40.224 Y113.824 E.01387
G1 X40.145 Y112.007 E.05704
G1 X56.107 Y68.152 E1.46328
G1 X57.193 Y66.907 E.05181
M204 P1000
; printing object Pi-Noir-cam-R.stl id:1 copy 0
G1 E-2.24 F2400
;WIPE_START
G1 F7200
G1 X59.74 Y65.562 E-.912
;WIPE_END
G1 E-.048 F2400
G1 Z.4 F720
G1 X108.062 Y69.051 F9000
G1 Z.2 F720
G1 E3.2 F1500
M204 P800
;TYPE:Perimeter
G1 F1200
G1 X93.27 Y100.773 E1.09745
G1 X95.428 Y106.702 E.19781
G1 X127.286 Y121.558 E1.10217
G1 X133.215 Y119.4 E.19781
G1 X136.189 Y113.021 E.2207
G1 X136.575 Y113.2 E.01335
G1 X133.526 Y119.74 E.22623
G1 X127.266 Y122.018 E.20887
G1 X95.088 Y107.013 E1.11323
G1 X92.745 Y100.577 E.21474
G1 X92.745 Y59.751 E1.2801
G1 X92.782 Y59.615 E.00442
G1 X92.828 Y59.561 E.00221
G1 X92.912 Y59.512 E.00303
G1 X92.993 Y59.503 E.00256
G1 X101.924 Y59.503 E.28003
G1 X102.06 Y59.54 E.00442
G1 X102.114 Y59.586 E.00221
G1 X102.162 Y59.669 E.00303
G1 X102.171 Y59.751 E.00256
G1 X102.171 Y72.649 E.40443
G1 X102.194 Y72.917 E.00843
G1 X102.27 Y73.21 E.00948
G1 X102.396 Y73.49 E.00964
G1 X102.582 Y73.757 E.0102
G1 X102.771 Y73.955 E.00859
G1 X103.013 Y74.136 E.00948
G1 X103.282 Y74.273 E.00948
G1 X103.571 Y74.363 E.00948
G1 X103.871 Y74.404 E.00948
G1 X104.178 Y74.393 E.00964
G1 X104.495 Y74.321 E.0102
G1 X104.75 Y74.221 E.00859
G1 X105.009 Y74.065 E.00948
G1 X105.238 Y73.868 E.00948
G1 X105.43 Y73.634 E.00948
G1 X105.564 Y73.401 E.00843
G1 X107.821 Y68.56 E.16748
G1 X107.94 Y68.51 E.00404
G1 X108.184 Y68.348 E.00918
G1 X108.392 Y68.156 E.00889
G1 X108.568 Y67.933 E.00889
G1 X108.706 Y67.685 E.00889
G1 X108.803 Y67.419 E.00889
G1 X108.856 Y67.14 E.00889
G1 X108.866 Y66.853 E.00902
G1 X108.8 Y66.385 E.01481
G1 X108.809 Y65.993 E.01231
G1 X108.905 Y65.615 E.01223
G1 X108.986 Y65.437 E.00613
G1 X109.204 Y65.113 E.01223
G1 X109.49 Y64.848 E.01223
G1 X109.828 Y64.654 E.01223
G1 X110.012 Y64.587 E.00612
G1 X110.395 Y64.518 E.01223
G1 X110.591 Y64.517 E.00613
G1 X110.785 Y64.538 E.00612
G1 X111.16 Y64.645 E.01223
G1 X111.336 Y64.73 E.00613
G1 X111.653 Y64.958 E.01223
G1 X111.912 Y65.253 E.01231
G1 X112.162 Y65.653 E.01481
G1 X112.354 Y65.867 E.00902
G1 X112.574 Y66.046 E.00889
G1 X112.824 Y66.19 E.00903
G1 X113.11 Y66.294 E.00954
G1 X113.362 Y66.347 E.00809
G1 X113.645 Y66.36 E.00889
G1 X113.936 Y66.328 E.00918
G1 X114.059 Y66.29 E.00404
G1 X120.614 Y69.346 E.22675
G1 X120.434 Y69.732 E.01335
G1 X113.991 Y66.727 E.2229
G1 X113.556 Y66.939 E.01516
G1 X108.624 Y68.733 E.16455
G1 X108.155 Y68.851 E.01516
G1 X108.088 Y68.997 E.00503
M204 P1000
G1 X108.421 Y69.173 F9000
M204 P800
;TYPE:External perimeter
G1 F1200
G1 X93.678 Y100.791 E1.09384
G1 X95.729 Y106.426 E.18802
G1 X127.304 Y121.15 E1.09237
G1 X132.939 Y119.099 E.18802
G1 X136.007 Y112.519 E.22763
G1 X137.077 Y113.018 E.037
G1 X133.802 Y120.041 E.24295
G1 X127.248 Y122.426 E.21867
G1 X94.787 Y107.289 E1.12302
G1 X92.368 Y100.644 E.22172
G1 X92.368 Y59.734 E1.2827
G1 X92.378 Y59.623 E.00349
G1 X92.451 Y59.423 E.00667
G1 X92.582 Y59.267 E.00638
G1 X92.766 Y59.161 E.00668
G1 X92.976 Y59.126 E.00668
G1 X101.94 Y59.126 E.28107
G1 X102.051 Y59.136 E.00349
G1 X102.251 Y59.209 E.00668
G1 X102.407 Y59.339 E.00638
G1 X102.514 Y59.524 E.00668
G1 X102.548 Y59.734 E.00668
G1 X102.548 Y72.633 E.40444
G1 X102.567 Y72.853 E.00693
G1 X102.627 Y73.084 E.00747
G1 X102.725 Y73.303 E.00753
G1 X102.875 Y73.518 E.00819
G1 X103.022 Y73.672 E.00669
G1 X103.213 Y73.814 E.00747
G1 X103.425 Y73.923 E.00747
G1 X103.653 Y73.994 E.00747
G1 X103.889 Y74.026 E.00747
G1 X104.129 Y74.017 E.00753
G1 X104.384 Y73.96 E.00819
G1 X104.583 Y73.882 E.00669
G1 X104.787 Y73.759 E.00747
G1 X104.967 Y73.603 E.00747
G1 X105.119 Y73.419 E.00747
G1 X105.229 Y73.227 E.00693
G1 X107.541 Y68.269 E.17155
G1 X107.761 Y68.176 E.00749
G1 X107.95 Y68.051 E.00711
G1 X108.115 Y67.899 E.00701
G1 X108.253 Y67.723 E.00701
G1 X108.362 Y67.528 E.00701
G1 X108.438 Y67.318 E.00701
G1 X108.481 Y67.098 E.00701
G1 X108.488 Y66.873 E.00706
G1 X108.424 Y66.418 E.01441
G1 X108.415 Y66.179 E.00751
G1 X108.434 Y65.941 E.00748
G1 X108.48 Y65.707 E.00748
G1 X108.553 Y65.48 E.00748
G1 X108.65 Y65.263 E.00748
G1 X108.772 Y65.058 E.00748
G1 X108.917 Y64.868 E.00748
G1 X109.082 Y64.696 E.00748
G1 X109.266 Y64.544 E.00748
G1 X109.465 Y64.414 E.00748
G1 X109.679 Y64.307 E.00748
G1 X109.903 Y64.225 E.00748
G1 X110.135 Y64.17 E.00748
G1 X110.371 Y64.141 E.00748
G1 X110.61 Y64.14 E.00748
G1 X110.847 Y64.165 E.00748
G1 X111.08 Y64.218 E.00748
G1 X111.305 Y64.296 E.00748
G1 X111.519 Y64.4 E.00748
G1 X111.721 Y64.528 E.00748
G1 X111.907 Y64.678 E.00748
G1 X112.074 Y64.847 E.00748
G1 X112.221 Y65.036 E.00751
G1 X112.465 Y65.426 E.01441
G1 X112.615 Y65.594 E.00706
G1 X112.789 Y65.734 E.00701
G1 X112.984 Y65.847 E.00706
G1 X113.213 Y65.931 E.00766
G1 X113.41 Y65.972 E.0063
G1 X113.633 Y65.982 E.00701
G1 X113.859 Y65.957 E.00711
G1 X114.087 Y65.886 E.00749
G1 X121.115 Y69.164 E.24314
G1 X120.616 Y70.233 E.037
G1 X113.994 Y67.145 E.2291
G1 X113.703 Y67.286 E.01014
G1 X108.735 Y69.094 E.16576
G1 X108.48 Y69.159 E.00826
M204 P1000
G1 X108.028 Y69.103 F9000
G1 X108.225 Y68.597
M204 P800
;TYPE:Gap fill
;WIDTH:0.129778
G1 F1200
G1 X108.115 Y68.645 E.00087
M204 P1000
G1 X108.225 Y68.597 F9000
M204 P800
;WIDTH:0.166235
G1 F1200
G1 X108.335 Y68.548 E.00123
M204 P1000
M204 P800
;WIDTH:0.170476
G1 X108.635 Y68.401 E.00354
M204 P1000
G1 E-2.24 F2400
;WIPE_START
G1 F7200
G1 X108.335 Y68.548 E-.10565
;WIPE_END
G1 E-.85435 F2400
G1 Z.4 F720
G1 X110.581 Y64.63 F9000
G1 Z.2 F720
G1 E3.2 F1500
M204 P800
;TYPE:Solid infill
;WIDTH:0.426381
G1 F1200
G1 X112.846 Y66.896 E.10217
G1 X112.449 Y67.041 E.01349
G1 X110.241 Y64.833 E.09953
G1 X110.085 Y64.861 E.00505
G1 X109.839 Y64.973 E.00863
G1 X112.051 Y67.185 E.09974
G1 X111.654 Y67.33 E.01349
G1 X109.525 Y65.201 E.09599
G1 X109.42 Y65.298 E.00456
G1 X109.283 Y65.502 E.00781
G1 X111.256 Y67.475 E.08897
G1 X110.858 Y67.619 E.01349
G1 X109.127 Y65.888 E.07806
G1 X109.091 Y66.032 E.00472
G1 X109.086 Y66.389 E.0114
G1 X110.461 Y67.764 E.06199
G1 X110.063 Y67.909 E.01349
G1 X109.144 Y66.99 E.04144
G1 X109.138 Y67.172 E.00581
G1 X109.081 Y67.469 E.00964
G1 X109.666 Y68.053 E.02636
G1 X109.268 Y68.198 E.01349
G1 X108.806 Y67.737 E.02081
M204 P1000
G1 E-2.24 F2400
;WIPE_START
G1 F7200
G1 X109.268 Y68.198 E-.20671
G1 X109.666 Y68.053 E-.13398
G1 X109.081 Y67.469 E-.2618
G1 X109.138 Y67.172 E-.09577
G1 X109.144 Y66.99 E-.05771
G1 X109.493 Y67.338 E-.15603
;WIPE_END
G1 E-.048 F2400
G1 Z.4 F720
G1 X113.334 Y66.69 F9000
G1 Z.2 F720
G1 E3.2 F1500
M204 P800
;TYPE:Gap fill
;WIDTH:0.17049
G1 F1200
G1 X113.658 Y66.611 E.00354
M204 P1000
M204 P800
;WIDTH:0.166247
G1 X113.774 Y66.577 E.00123
M204 P1000
M204 P800
;WIDTH:0.129784
G1 X113.889 Y66.544 E.00087
M204 P1000
G1 E-2.24 F2400
;WIPE_START
G1 F7200
G1 X113.774 Y66.577 E-.03805
;WIPE_END
G1 E-.92195 F2400
G1 Z.4 F720
G1 X105.756 Y73.494 F9000
G1 Z.2 F720
G1 E3.2 F1500
M204 P800
;WIDTH:0.116544
G1 F1200
G1 X105.618 Y73.76 E.00184
M204 P1000
M204 P800
;WIDTH:0.117607
G1 X105.615 Y73.766 E.00004
M204 P1000
M204 P800
;WIDTH:0.160218
G1 X105.525 Y73.908 E.00164
M204 P1000
M204 P800
;WIDTH:0.202829
G1 X105.435 Y74.051 E.00224
M204 P1000
M204 P800
;WIDTH:0.207514
G1 X105.269 Y74.29 E.00397
M204 P1000
G1 E-2.24 F2400
;WIPE_START
G1 F7200
G1 X105.435 Y74.051 E-.09195
;WIPE_END
G1 E-.86805 F2400
G1 Z.4 F720
G1 X102.058 Y60.462 F9000
G1 Z.2 F720
G1 E3.2 F1500
M204 P800
;TYPE:Solid infill
;WIDTH:0.422251
G1 F1200
G1 X101.386 Y59.79 E.03
G1 X100.849 Y59.789 E.01693
G1 X101.888 Y60.829 E.04637
G1 X101.888 Y61.365 E.01692
G1 X100.312 Y59.789 E.07031
G1 X99.776 Y59.789 E.01693
G1 X101.888 Y61.902 E.09425
G1 X101.888 Y62.438 E.01692
G1 X99.239 Y59.789 E.11819
G1 X98.702 Y59.789 E.01693
G1 X101.888 Y62.975 E.14213
G1 X101.888 Y63.511 E.01692
G1 X98.166 Y59.788 E.16607
G1 X97.629 Y59.788 E.01693
G1 X101.888 Y64.048 E.19001
G1 X101.888 Y64.584 E.01692
G1 X97.092 Y59.788 E.21395
G1 X96.555 Y59.788 E.01693
G1 X101.888 Y65.121 E.23789
G1 X101.888 Y65.657 E.01692
G1 X96.019 Y59.787 E.26183
G1 X95.482 Y59.787 E.01693
M73 P1 R103
G1 X101.888 Y66.193 E.28576
G1 X101.888 Y66.73 E.01692
G1 X94.945 Y59.787 E.3097
G1 X94.409 Y59.787 E.01693
G1 X101.888 Y67.266 E.33364
G1 X101.888 Y67.803 E.01692
G1 X93.872 Y59.786 E.35758
G1 X93.335 Y59.786 E.01693
G1 X101.888 Y68.339 E.38152
G1 X101.888 Y68.876 E.01692
G1 X93.032 Y60.019 E.39505
G1 X93.032 Y60.556 E.01692
G1 X101.888 Y69.412 E.39505
G1 X101.888 Y69.949 E.01692
G1 X93.032 Y61.092 E.39506
G1 X93.032 Y61.629 E.01692
G1 X101.888 Y70.485 E.39506
G1 X101.888 Y71.022 E.01692
G1 X93.032 Y62.165 E.39506
G1 X93.032 Y62.701 E.01692
G1 X101.888 Y71.558 E.39506
G1 X101.888 Y72.094 E.01692
G1 X93.032 Y63.238 E.39506
G1 X93.032 Y63.774 E.01692
G1 X102.072 Y72.814 E.40324
M204 P1000
G1 E-2.24 F2400
;WIPE_START
G1 F7200
G1 X100.035 Y70.778 E-.912
;WIPE_END
G1 E-.048 F2400
G1 Z.4 F720
G1 X104.695 Y74.364 F9000
G1 Z.2 F720
G1 E3.2 F1500
M204 P800
G1 F1200
G1 X105.089 Y74.758 E.01758
G1 X104.918 Y75.124 E.01273
G1 X104.422 Y74.628 E.02216
G1 X104.214 Y74.674 E.00671
G1 X103.942 Y74.684 E.0086
G1 X104.748 Y75.49 E.03596
G1 X104.577 Y75.856 E.01273
G1 X103.294 Y74.573 E.05722
G1 X103.175 Y74.536 E.00393
G1 X102.863 Y74.377 E.01105
G1 X102.583 Y74.167 E.01105
G1 X102.362 Y73.936 E.01007
G1 X102.149 Y73.63 E.01177
G1 X101.994 Y73.273 E.01228
G1 X93.032 Y64.311 E.39978
G1 X93.032 Y64.847 E.01692
G1 X104.407 Y76.222 E.50739
G1 X104.236 Y76.588 E.01273
G1 X93.032 Y65.383 E.49978
G1 X93.032 Y65.92 E.01692
G1 X104.065 Y76.954 E.49218
G1 X103.895 Y77.319 E.01273
G1 X93.031 Y66.456 E.48457
G1 X93.031 Y66.993 E.01692
G1 X103.724 Y77.685 E.47696
G1 X103.553 Y78.051 E.01273
G1 X93.031 Y67.529 E.46935
G1 X93.031 Y68.065 E.01692
G1 X103.383 Y78.417 E.46175
G1 X103.212 Y78.783 E.01273
G1 X93.031 Y68.602 E.45414
G1 X93.031 Y69.138 E.01692
G1 X103.042 Y79.149 E.44653
G1 X102.871 Y79.515 E.01273
G1 X93.031 Y69.675 E.43892
G1 X93.031 Y70.211 E.01692
G1 X102.7 Y79.88 E.43132
G1 X102.53 Y80.246 E.01273
G1 X93.031 Y70.747 E.42371
G1 X93.031 Y71.284 E.01692
G1 X102.359 Y80.612 E.4161
G1 X102.189 Y80.978 E.01273
M73 P1 R102
G1 X93.031 Y71.82 E.40849
G1 X93.031 Y72.357 E.01692
G1 X102.018 Y81.344 E.40089
G1 X101.847 Y81.71 E.01273
G1 X93.031 Y72.893 E.39328
G1 X93.031 Y73.429 E.01692
G1 X101.677 Y82.076 E.38567
G1 X101.506 Y82.441 E.01273
G1 X93.031 Y73.966 E.37806
G1 X93.031 Y74.502 E.01692
G1 X101.336 Y82.807 E.37045
G1 X101.165 Y83.173 E.01273
G1 X93.031 Y75.039 E.36285
G1 X93.031 Y75.575 E.01692
G1 X100.994 Y83.539 E.35524
G1 X100.824 Y83.905 E.01273
G1 X93.031 Y76.111 E.34763
G1 X93.031 Y76.648 E.01692
G1 X100.653 Y84.271 E.34002
G1 X100.483 Y84.637 E.01273
G1 X93.03 Y77.184 E.33242
G1 X93.03 Y77.721 E.01692
G1 X100.312 Y85.002 E.32481
G1 X100.141 Y85.368 E.01273
G1 X93.03 Y78.257 E.3172
G1 X93.03 Y78.793 E.01692
G1 X99.971 Y85.734 E.30959
G1 X99.8 Y86.1 E.01273
G1 X93.03 Y79.33 E.30199
G1 X93.03 Y79.866 E.01692
G1 X99.63 Y86.466 E.29438
G1 X99.459 Y86.832 E.01273
G1 X93.03 Y80.403 E.28677
G1 X93.03 Y80.939 E.01692
G1 X99.288 Y87.197 E.27916
G1 X99.118 Y87.563 E.01273
G1 X93.03 Y81.476 E.27156
G1 X93.03 Y82.012 E.01692
G1 X98.947 Y87.929 E.26395
G1 X98.777 Y88.295 E.01273
G1 X93.03 Y82.548 E.25634
G1 X93.03 Y83.085 E.01692
G1 X98.606 Y88.661 E.24873
G1 X98.435 Y89.027 E.01273
G1 X93.03 Y83.621 E.24113
G1 X93.03 Y84.158 E.01692
G1 X98.265 Y89.393 E.23352
G1 X98.094 Y89.758 E.01273
G1 X93.03 Y84.694 E.22591
G1 X93.03 Y85.23 E.01692
G1 X97.924 Y90.124 E.2183
G1 X97.753 Y90.49 E.01273
G1 X93.03 Y85.767 E.2107
G1 X93.03 Y86.303 E.01692
G1 X97.582 Y90.856 E.20309
G1 X97.412 Y91.222 E.01273
G1 X93.03 Y86.84 E.19548
G1 X93.029 Y87.376 E.01692
G1 X97.241 Y91.588 E.18787
G1 X97.071 Y91.954 E.01273
G1 X93.029 Y87.912 E.18027
G1 X93.029 Y88.449 E.01692
G1 X96.9 Y92.319 E.17266
G1 X96.729 Y92.685 E.01273
G1 X93.029 Y88.985 E.16505
G1 X93.029 Y89.522 E.01692
G1 X96.559 Y93.051 E.15744
G1 X96.388 Y93.417 E.01273
G1 X93.029 Y90.058 E.14984
G1 X93.029 Y90.594 E.01692
G1 X96.218 Y93.783 E.14223
G1 X96.047 Y94.149 E.01273
G1 X93.029 Y91.131 E.13462
G1 X93.029 Y91.667 E.01692
G1 X95.876 Y94.515 E.12701
G1 X95.706 Y94.88 E.01273
G1 X93.029 Y92.204 E.1194
G1 X93.029 Y92.74 E.01692
G1 X95.535 Y95.246 E.1118
G1 X95.365 Y95.612 E.01273
G1 X93.029 Y93.276 E.10419
G1 X93.029 Y93.813 E.01692
G1 X95.194 Y95.978 E.09658
G1 X95.023 Y96.344 E.01273
G1 X93.029 Y94.349 E.08897
G1 X93.029 Y94.886 E.01692
G1 X94.853 Y96.71 E.08137
G1 X94.682 Y97.076 E.01273
G1 X93.029 Y95.422 E.07376
G1 X93.029 Y95.958 E.01692
G1 X94.512 Y97.441 E.06615
G1 X94.341 Y97.807 E.01273
G1 X93.029 Y96.495 E.05854
G1 X93.029 Y97.031 E.01692
G1 X94.17 Y98.173 E.05094
G1 X94 Y98.539 E.01273
G1 X93.028 Y97.568 E.04333
G1 X93.028 Y98.104 E.01692
G1 X93.829 Y98.905 E.03572
G1 X93.659 Y99.271 E.01273
G1 X93.028 Y98.64 E.02811
G1 X93.028 Y99.177 E.01692
G1 X93.488 Y99.637 E.02051
G1 X93.317 Y100.002 E.01273
G1 X93.028 Y99.713 E.0129
G1 X93.028 Y100.25 E.01692
G1 X93.275 Y100.496 E.01099
M204 P1000
; stop printing object Pi-Noir-cam-R.stl id:1 copy 0
; printing object Pi-Noir-cam-L.stl id:0 copy 0
G1 E-2.24 F2400
;WIPE_START
G1 F7200
G1 X93.028 Y100.25 E-.1103
G1 X93.028 Y99.713 E-.16986
G1 X93.317 Y100.002 E-.1295
G1 X93.488 Y99.637 E-.12783
G1 X93.028 Y99.177 E-.20588
G1 X93.028 Y98.644 E-.16863
;WIPE_END
G1 E-.048 F2400
G1 Z.4 F720
G1 X71.631 Y68.796 F9000
G1 Z.2 F720
G1 E3.2 F1500
M204 P800
;TYPE:Perimeter
;WIDTH:0.42
G1 F1200
G1 X71.413 Y68.746 E.00703
G1 X66.448 Y66.94 E.16566
G1 X66.009 Y66.728 E.01528
G1 X59.566 Y69.732 E.22288
G1 X59.386 Y69.346 E.01335
G1 X65.93 Y66.294 E.22639
G1 X66.645 Y66.543 E.02373
G1 X66.942 Y66.577 E.00938
G1 X67.219 Y66.566 E.00867
