; generated by PrusaSlicer 2.3.3+win64 on 2021-10-13 at 19:52:06 UTC


;
;

;
;
; 

; external perimeters extrusion width = 0.45mm
; perimeters extrusion width = 0.45mm
; infill extrusion width = 0.45mm
; solid infill extrusion width = 0.45mm
; top infill extrusion width = 0.40mm
; first layer extrusion width = 0.42mm

M73 P0 R87
M201 X1250 Y1250 Z400 E5000 ; sets maximum accelerations, mm/sec^2
M203 X180 Y180 Z12 E80 ; sets maximum feedrates, mm/sec
M204 P1250 R1250 T1250 ; sets acceleration (P, T) and retract acceleration (R), mm/sec^2
M205 X8.00 Y8.00 Z2.00 E10.00 ; sets the jerk limits, mm/sec
M205 S0 T0 ; sets the minimum extruding and travel feed rate, mm/sec
M107
;TYPE:Custom
G90 ; use absolute coordinates
M83 ; extruder relative mode
M104 S170 ; set extruder temp for bed leveling
M140 S85 ; set bed temp
M109 R170 ; wait for bed leveling temp
M190 S85 ; wait for bed temp
G28 ; home all without mesh bed level
G29 ; mesh bed leveling 
M104 S230 ; set extruder temp
G92 E0.0
G1 Y-2.0 X179 F2400
G1 Z3 F720
M109 S230 ; wait for extruder temp

; intro line
G1 X170 F1000
G1 Z0.2 F720
G1 X110.0 E8.0 F900
G1 X40.0 E10.0 F700
G92 E0.0

M221 S95 ; set flow
G21 ; set units to millimeters
G90 ; use absolute coordinates
M83 ; use relative distances for extrusion
M900 K0.2 ; Filament gcode
;LAYER_CHANGE
;Z:0.2
;HEIGHT:0.2
;BEFORE_LAYER_CHANGE
G92 E0.0
;0.2


G1 E-3.20000 F2400.000
G1 Z0.200 F9000.000
;AFTER_LAYER_CHANGE
;0.2
G1 Z0.400
G1 X68.790 Y84.824
G1 Z0.200
G1 E3.20000 F1500.000
M204 S800
;TYPE:Skirt
;WIDTH:0.42
G1 F1200.000
G1 X69.484 Y84.718 E0.02201
G1 X109.004 Y84.718 E1.23912
G1 X109.941 Y84.789 E0.02947
G1 X110.905 Y85.017 E0.03106
G1 X112.011 Y85.491 E0.03773
G1 X112.856 Y86.045 E0.03168
G1 X113.592 Y86.714 E0.03119
G1 X114.335 Y87.667 E0.03789
G1 X114.805 Y88.538 E0.03104
G1 X115.130 Y89.441 E0.03008
G1 X115.313 Y90.312 E0.02792
G1 X115.377 Y91.185 E0.02742
G1 X115.362 Y99.956 E0.27503
G1 X115.187 Y100.617 E0.02142
G1 X114.830 Y101.204 E0.02154
G1 X114.320 Y101.663 E0.02154
G1 X113.703 Y101.957 E0.02142
G1 X113.005 Y102.063 E0.02213
G1 X69.192 Y102.057 E1.37372
G1 X68.475 Y101.890 E0.02308
G1 X67.847 Y101.514 E0.02296
G1 X65.360 Y99.350 E0.10336
G1 X65.017 Y98.905 E0.01763
G1 X64.786 Y98.388 E0.01775
G1 X64.681 Y97.690 E0.02213
G1 X64.681 Y89.189 E0.26654
G1 X64.778 Y88.543 E0.02048
G1 X65.037 Y87.964 E0.01989
G1 X65.442 Y87.471 E0.02000
G1 X67.871 Y85.300 E0.10214
G1 X68.737 Y84.852 E0.03057
M204 S1250
; printing object Tube mount.stl id:0 copy 0
G1 E-2.24000 F2400.000
;WIPE_START
G1 F7200.000
G1 X69.484 Y84.718 E-0.24040
G1 X71.605 Y84.718 E-0.67160
;WIPE_END
G1 E-0.04800 F2400.000
G1 Z0.400 F9000.000
G1 X105.796 Y92.472
G1 Z0.200
G1 E3.20000 F1500.000
M204 S800
;TYPE:Perimeter
G1 F1200.000
G1 X106.085 Y91.884 E0.02052
G1 X106.499 Y91.378 E0.02049
G1 X106.978 Y91.007 E0.01902
G1 X107.330 Y90.818 E0.01254
G1 X107.929 Y90.623 E0.01974
G1 X108.533 Y90.570 E0.01902
G1 X108.932 Y90.601 E0.01254
G1 X109.515 Y90.754 E0.01890
G1 X109.863 Y90.913 E0.01200
G1 X110.380 Y91.267 E0.01965
G1 X110.823 Y91.749 E0.02052
G1 X111.144 Y92.318 E0.02049
G1 X111.316 Y92.899 E0.01902
G1 X111.365 Y93.296 E0.01254
G1 X111.330 Y93.898 E0.01890
G1 X111.244 Y94.271 E0.01200
G1 X111.000 Y94.848 E0.01965
G1 X110.615 Y95.378 E0.02052
G1 X110.120 Y95.806 E0.02052
G1 X109.542 Y96.112 E0.02052
G1 X108.935 Y96.271 E0.01965
G1 X108.555 Y96.304 E0.01196
G1 X107.979 Y96.255 E0.01815
G1 X107.591 Y96.157 E0.01254
G1 X107.018 Y95.895 E0.01977
G1 X106.499 Y95.495 E0.02052
G1 X106.085 Y94.988 E0.02052
G1 X105.796 Y94.401 E0.02052
G1 X105.654 Y93.791 E0.01965
G1 X105.634 Y93.436 E0.01113
G1 X105.654 Y93.082 E0.01113
G1 X105.783 Y92.530 E0.01777
M204 S1250
G1 X106.150 Y92.615 F9000.000
M204 S800
G1 F1200.000
G1 X106.404 Y92.089 E0.01832
G1 X106.763 Y91.650 E0.01779
G1 X107.184 Y91.324 E0.01669
G1 X107.479 Y91.166 E0.01049
G1 X108.005 Y90.995 E0.01733
G1 X108.535 Y90.948 E0.01669
G1 X108.869 Y90.974 E0.01049
G1 X109.387 Y91.111 E0.01682
G1 X109.677 Y91.243 E0.00997
G1 X110.131 Y91.554 E0.01728
G1 X110.515 Y91.972 E0.01781
G1 X110.794 Y92.466 E0.01779
G1 X110.946 Y92.977 E0.01669
G1 X110.986 Y93.309 E0.01049
G1 X110.956 Y93.844 E0.01682
G1 X110.884 Y94.154 E0.00997
G1 X110.669 Y94.661 E0.01728
G1 X110.335 Y95.121 E0.01781
G1 X109.906 Y95.493 E0.01781
G1 X109.404 Y95.758 E0.01781
G1 X108.871 Y95.898 E0.01728
G1 X108.555 Y95.925 E0.00994
G1 X108.041 Y95.882 E0.01616
G1 X107.717 Y95.800 E0.01049
G1 X107.214 Y95.570 E0.01735
G1 X106.764 Y95.223 E0.01781
G1 X106.404 Y94.783 E0.01781
G1 X106.154 Y94.274 E0.01781
G1 X106.029 Y93.737 E0.01728
G1 X106.012 Y93.436 E0.00944
G1 X106.029 Y93.136 E0.00944
G1 X106.136 Y92.674 E0.01487
M204 S1250
G1 X106.504 Y92.759 F9000.000
M204 S800
;TYPE:External perimeter
G1 F1200.000
G1 X106.724 Y92.295 E0.01612
G1 X107.028 Y91.922 E0.01509
G1 X107.390 Y91.642 E0.01437
G1 X107.628 Y91.514 E0.00845
G1 X108.080 Y91.367 E0.01492
G1 X108.537 Y91.327 E0.01437
G1 X108.806 Y91.347 E0.00845
G1 X109.260 Y91.467 E0.01474
G1 X109.490 Y91.572 E0.00793
G1 X109.883 Y91.840 E0.01490
G1 X110.208 Y92.195 E0.01509
G1 X110.445 Y92.614 E0.01509
G1 X110.575 Y93.054 E0.01437
G1 X110.608 Y93.321 E0.00845
G1 X110.581 Y93.790 E0.01474
G1 X110.524 Y94.037 E0.00793
G1 X110.339 Y94.475 E0.01490
G1 X110.056 Y94.864 E0.01509
G1 X109.692 Y95.180 E0.01510
G1 X109.266 Y95.404 E0.01509
G1 X108.806 Y95.525 E0.01491
G1 X108.555 Y95.547 E0.00793
G1 X108.104 Y95.509 E0.01418
G1 X107.843 Y95.443 E0.00845
G1 X107.410 Y95.245 E0.01493
G1 X107.028 Y94.951 E0.01510
G1 X106.724 Y94.578 E0.01510
G1 X106.511 Y94.146 E0.01509
G1 X106.403 Y93.683 E0.01490
G1 X106.389 Y93.436 E0.00775
G1 X106.403 Y93.190 E0.00775
G1 X106.490 Y92.818 E0.01197
M204 S1250
G1 X106.247 Y92.453 F9000.000
G1 E-2.24000 F2400.000
;WIPE_START
G1 F7200.000
G1 X106.724 Y92.295 E-0.18141
G1 X107.028 Y91.922 E-0.15238
G1 X107.390 Y91.642 E-0.14512
G1 X107.628 Y91.514 E-0.08533
G1 X108.080 Y91.367 E-0.15073
G1 X108.537 Y91.327 E-0.14512
G1 X108.700 Y91.339 E-0.05191
;WIPE_END
G1 E-0.04800 F2400.000
G1 Z0.400 F9000.000
G1 X74.366 Y93.281
G1 Z0.200
G1 E3.20000 F1500.000
M204 S800
;TYPE:Perimeter
G1 F1200.000
G1 X74.327 Y93.933 E0.02046
G1 X74.156 Y94.516 E0.01906
G1 X73.980 Y94.876 E0.01256
G1 X73.610 Y95.382 E0.01967
G1 X73.151 Y95.781 E0.01906
G1 X72.808 Y95.988 E0.01256
G1 X72.223 Y96.214 E0.01967
G1 X71.621 Y96.301 E0.01906
G1 X71.221 Y96.290 E0.01256
G1 X70.606 Y96.164 E0.01967
G1 X70.053 Y95.912 E0.01906
G1 X69.722 Y95.686 E0.01256
G1 X69.273 Y95.248 E0.01967
G1 X68.945 Y94.737 E0.01906
G1 X68.788 Y94.368 E0.01256
G1 X68.647 Y93.755 E0.01973
G1 X68.649 Y93.102 E0.02046
G1 X68.786 Y92.510 E0.01906
G1 X68.942 Y92.141 E0.01256
G1 X69.283 Y91.612 E0.01973
G1 X69.753 Y91.159 E0.02046
G1 X70.273 Y90.845 E0.01906
G1 X70.646 Y90.699 E0.01256
G1 X71.263 Y90.576 E0.01973
G1 X71.916 Y90.596 E0.02046
G1 X72.503 Y90.750 E0.01906
G1 X72.868 Y90.916 E0.01256
G1 X73.387 Y91.273 E0.01973
G1 X73.826 Y91.755 E0.02046
G1 X74.126 Y92.284 E0.01906
G1 X74.261 Y92.661 E0.01256
G1 X74.356 Y93.222 E0.01785
M204 S1250
G1 X73.985 Y93.285 F9000.000
M204 S800
G1 F1200.000
G1 X73.953 Y93.868 E0.01828
G1 X73.803 Y94.379 E0.01672
G1 X73.656 Y94.680 E0.01051
G1 X73.331 Y95.125 E0.01729
G1 X72.928 Y95.475 E0.01672
G1 X72.641 Y95.649 E0.01051
G1 X72.127 Y95.847 E0.01729
G1 X71.599 Y95.923 E0.01672
G1 X71.264 Y95.914 E0.01051
G1 X70.724 Y95.803 E0.01729
G1 X70.239 Y95.582 E0.01672
G1 X69.962 Y95.394 E0.01051
G1 X69.568 Y95.008 E0.01729
G1 X69.279 Y94.560 E0.01672
G1 X69.148 Y94.251 E0.01051
G1 X69.024 Y93.713 E0.01732
G1 X69.026 Y93.146 E0.01777
G1 X69.147 Y92.626 E0.01672
G1 X69.276 Y92.317 E0.01051
G1 X69.577 Y91.854 E0.01732
G1 X69.984 Y91.460 E0.01777
G1 X70.441 Y91.184 E0.01672
G1 X70.753 Y91.062 E0.01051
G1 X71.295 Y90.954 E0.01732
G1 X71.861 Y90.972 E0.01777
G1 X72.377 Y91.107 E0.01672
G1 X72.682 Y91.246 E0.01051
G1 X73.137 Y91.559 E0.01732
G1 X73.519 Y91.978 E0.01777
G1 X73.782 Y92.442 E0.01672
G1 X73.895 Y92.757 E0.01051
G1 X73.975 Y93.226 E0.01492
M204 S1250
G1 X73.603 Y93.289 F9000.000
M204 S800
;TYPE:External perimeter
G1 F1200.000
G1 X73.579 Y93.802 E0.01610
G1 X73.450 Y94.243 E0.01438
G1 X73.332 Y94.485 E0.00845
G1 X73.051 Y94.869 E0.01491
G1 X72.705 Y95.169 E0.01438
G1 X72.474 Y95.309 E0.00846
G1 X72.031 Y95.480 E0.01491
G1 X71.577 Y95.545 E0.01438
G1 X71.307 Y95.538 E0.00845
G1 X70.842 Y95.442 E0.01491
G1 X70.424 Y95.252 E0.01438
G1 X70.202 Y95.101 E0.00845
G1 X69.862 Y94.768 E0.01491
G1 X69.613 Y94.382 E0.01438
G1 X69.508 Y94.134 E0.00845
G1 X69.402 Y93.671 E0.01492
G1 X69.403 Y93.190 E0.01508
G1 X69.507 Y92.743 E0.01438
G1 X69.611 Y92.494 E0.00845
G1 X69.870 Y92.095 E0.01492
G1 X70.216 Y91.761 E0.01508
G1 X70.608 Y91.524 E0.01438
G1 X70.859 Y91.425 E0.00845
G1 X71.326 Y91.332 E0.01492
G1 X71.807 Y91.347 E0.01508
G1 X72.250 Y91.464 E0.01438
G1 X72.496 Y91.575 E0.00845
G1 X72.888 Y91.845 E0.01492
G1 X73.212 Y92.200 E0.01508
G1 X73.438 Y92.599 E0.01438
G1 X73.529 Y92.853 E0.00845
G1 X73.593 Y93.230 E0.01199
M204 S1250
G1 X73.958 Y93.472 F9000.000
G1 E-2.24000 F2400.000
;WIPE_START
G1 F7200.000
G1 X73.579 Y93.802 E-0.18126
G1 X73.450 Y94.243 E-0.14520
G1 X73.332 Y94.485 E-0.08539
G1 X73.051 Y94.869 E-0.15057
G1 X72.705 Y95.169 E-0.14521
G1 X72.474 Y95.309 E-0.08540
G1 X72.124 Y95.444 E-0.11897
;WIPE_END
G1 E-0.04800 F2400.000
G1 Z0.400 F9000.000
G1 X69.793 Y88.326
G1 Z0.200
G1 E3.20000 F1500.000
M204 S800
;TYPE:Perimeter
G1 F1200.000
G1 X108.962 Y88.326 E1.22812
G1 X109.398 Y88.359 E0.01369
G1 X109.789 Y88.447 E0.01256
G1 X110.163 Y88.591 E0.01259
G1 X110.516 Y88.791 E0.01273
G1 X110.840 Y89.042 E0.01286
G1 X111.128 Y89.340 E0.01300
G1 X111.374 Y89.680 E0.01313
G1 X111.571 Y90.054 E0.01326
G1 X111.721 Y90.470 E0.01387
G1 X111.765 Y90.646 E0.00568
G1 X111.828 Y91.105 E0.01452
G1 X111.836 Y91.323 E0.00686
G1 X111.836 Y98.522 E0.22572
G1 X69.801 Y98.522 E1.31797
G1 X68.222 Y97.155 E0.06550
G1 X68.222 Y89.735 E0.23263
G1 X69.749 Y88.366 E0.06429
M204 S1250
G1 E-2.24000 F2400.000
;WIPE_START
G1 F7200.000
G1 X72.629 Y88.363 E-0.91200
;WIPE_END
G1 E-0.04800 F2400.000
G1 Z0.400 F9000.000
G1 X67.845 Y89.567
G1 Z0.200
G1 E3.20000 F1500.000
M204 S800
G1 F1200.000
G1 X69.649 Y87.949 E0.07597
G1 X108.976 Y87.949 E1.23308
G1 X109.454 Y87.985 E0.01501
G1 X109.899 Y88.085 E0.01430
G1 X110.325 Y88.249 E0.01432
G1 X110.726 Y88.476 E0.01445
G1 X111.093 Y88.761 E0.01456
G1 X111.418 Y89.098 E0.01469
G1 X111.695 Y89.480 E0.01481
G1 X111.917 Y89.901 E0.01492
G1 X112.083 Y90.361 E0.01531
G1 X112.135 Y90.574 E0.00691
G1 X112.204 Y91.072 E0.01575
G1 X112.213 Y91.317 E0.00768
G1 X112.213 Y98.899 E0.23774
G1 X69.661 Y98.899 E1.33420
G1 X67.845 Y97.327 E0.07531
G1 X67.845 Y89.627 E0.24143
M204 S1250
G1 X67.468 Y89.398 F9000.000
M204 S800
;TYPE:External perimeter
G1 F1200.000
G1 X69.505 Y87.572 E0.08577
G1 X108.990 Y87.572 E1.23805
G1 X109.509 Y87.611 E0.01632
G1 X110.009 Y87.723 E0.01605
G1 X110.486 Y87.908 E0.01606
G1 X110.935 Y88.161 E0.01617
G1 X111.345 Y88.479 E0.01627
G1 X111.708 Y88.855 E0.01638
G1 X112.016 Y89.281 E0.01648
G1 X112.263 Y89.749 E0.01658
G1 X112.444 Y90.251 E0.01675
G1 X112.506 Y90.503 E0.00814
G1 X112.581 Y91.039 E0.01698
G1 X112.590 Y91.310 E0.00850
G1 X112.590 Y99.276 E0.24977
G1 X69.520 Y99.276 E1.35043
G1 X67.468 Y97.499 E0.08512
G1 X67.468 Y89.458 E0.25211
M204 S1250
G1 X67.868 Y89.386 F9000.000
G1 E-2.24000 F2400.000
;WIPE_START
G1 F7200.000
G1 X69.505 Y87.572 E-0.87909
G1 X69.609 Y87.572 E-0.03291
;WIPE_END
G1 E-0.04800 F2400.000
G1 Z0.400 F9000.000
G1 X68.551 Y92.165
G1 Z0.200
G1 E3.20000 F1500.000
M204 S800
;TYPE:Gap fill
;WIDTH:0.246897
G1 F1200.000
G1 X68.484 Y92.654 E0.00836
M204 S1250
M204 S800
;WIDTH:0.192112
G1 X68.458 Y92.878 E0.00280
M204 S1250
M204 S800
;WIDTH:0.142716
G1 X68.433 Y93.102 E0.00187
M204 S1250
G1 X68.433 Y93.763 F9000.000
M204 S800
;WIDTH:0.143129
G1 F1200.000
G1 X68.459 Y93.992 E0.00192
M204 S1250
M204 S800
;WIDTH:0.192939
G1 X68.484 Y94.220 E0.00287
M204 S1250
M204 S800
;WIDTH:0.248414
G1 X68.551 Y94.705 E0.00836
M204 S1250
G1 E-2.24000 F2400.000
;WIPE_START
G1 F7200.000
G1 X68.484 Y94.220 E-0.15492
;WIPE_END
G1 E-0.80508 F2400.000
G1 Z0.400 F9000.000
G1 X111.496 Y94.546
G1 Z0.200
G1 E3.20000 F1500.000
M204 S800
;WIDTH:0.295042
G1 F1200.000
G1 X111.531 Y94.375 E0.00366
M204 S1250
M204 S800
;WIDTH:0.275737
G1 X111.558 Y94.147 E0.00443
M204 S1250
M204 S800
;WIDTH:0.221884
G1 X111.582 Y93.940 E0.00311
M204 S1250
M204 S800
;WIDTH:0.17427
G1 X111.601 Y93.293 E0.00707
M204 S1250
M204 S800
;WIDTH:0.13661
G1 X111.573 Y92.840 E0.00354
M204 S1250
M204 S800
;WIDTH:0.231814
G1 X111.494 Y92.294 E0.00865
M204 S1250
G1 E-2.24000 F2400.000
;WIPE_START
G1 F7200.000
G1 X111.573 Y92.840 E-0.17449
;WIPE_END
G1 E-0.78551 F2400.000
G1 Z0.400 F9000.000
G1 X111.436 Y90.039
G1 Z0.200
G1 E3.20000 F1500.000
M204 S800
;TYPE:Solid infill
;WIDTH:0.422502
G1 F1200.000
G1 X110.644 Y89.248 E0.03532
G1 X110.359 Y89.027 E0.01138
G1 X110.042 Y88.848 E0.01151
G1 X109.706 Y88.718 E0.01136
G1 X109.540 Y88.681 E0.00537
G1 X111.463 Y90.603 E0.08582
G1 X111.550 Y91.227 E0.01987
G1 X108.932 Y88.609 E0.11684
G1 X108.395 Y88.609 E0.01694
G1 X111.553 Y91.767 E0.14096
G1 X111.553 Y92.000 E0.00735
G1 X111.309 Y92.035 E0.00778
G1 X111.053 Y91.582 E0.01645
G1 X110.566 Y91.052 E0.02271
G1 X110.002 Y90.666 E0.02157
G1 X109.842 Y90.593 E0.00557
G1 X107.858 Y88.609 E0.08853
G1 X107.321 Y88.609 E0.01694
G1 X109.053 Y90.340 E0.07727
G1 X108.979 Y90.321 E0.00240
G1 X108.467 Y90.292 E0.01618
G1 X106.785 Y88.609 E0.07510
G1 X106.248 Y88.609 E0.01694
G1 X107.974 Y90.335 E0.07705
G1 X107.872 Y90.344 E0.00323
G1 X107.551 Y90.449 E0.01067
G1 X105.711 Y88.609 E0.08211
G1 X105.174 Y88.609 E0.01694
G1 X107.156 Y90.590 E0.08844
G1 X106.809 Y90.780 E0.01248
G1 X104.637 Y88.609 E0.09692
G1 X104.101 Y88.609 E0.01694
G1 X106.506 Y91.015 E0.10738
G1 X106.300 Y91.175 E0.00824
G1 X106.223 Y91.268 E0.00383
G1 X103.564 Y88.609 E0.11870
G1 X103.027 Y88.609 E0.01694
G1 X105.982 Y91.564 E0.13189
G1 X105.845 Y91.730 E0.00679
G1 X105.768 Y91.887 E0.00552
G1 X102.490 Y88.609 E0.14632
G1 X101.953 Y88.609 E0.01694
G1 X105.591 Y92.247 E0.16239
G1 X105.528 Y92.376 E0.00453
G1 X105.463 Y92.656 E0.00906
G1 X101.417 Y88.609 E0.18062
G1 X100.880 Y88.609 E0.01694
G1 X105.370 Y93.099 E0.20043
G1 X105.351 Y93.436 E0.01065
G1 X105.362 Y93.628 E0.00605
G1 X100.343 Y88.609 E0.22402
M73 P1 R87
G1 X99.806 Y88.609 E0.01694
G1 X105.740 Y94.543 E0.26486
M204 S1250
M73 P1 R86
G1 E-2.24000 F2400.000
;WIPE_START
G1 F7200.000
G1 X103.703 Y92.506 E-0.91200
;WIPE_END
G1 E-0.04800 F2400.000
G1 Z0.400 F9000.000
G1 X111.209 Y94.644
G1 Z0.200
G1 E3.20000 F1500.000
M204 S800
G1 F1200.000
G1 X111.553 Y94.988 E0.01536
G1 X111.553 Y95.525 E0.01694
G1 X111.150 Y95.122 E0.01798
G1 X110.924 Y95.433 E0.01213
G1 X111.553 Y96.062 E0.02806
G1 X111.553 Y96.598 E0.01694
G1 X110.664 Y95.709 E0.03969
G1 X110.376 Y95.959 E0.01201
G1 X111.553 Y97.135 E0.05252
G1 X111.553 Y97.672 E0.01694
G1 X110.046 Y96.165 E0.06726
G1 X109.695 Y96.350 E0.01254
G1 X111.553 Y98.209 E0.08295
G1 X111.553 Y98.239 E0.00097
G1 X111.047 Y98.239 E0.01598
G1 X109.280 Y96.473 E0.07886
G1 X108.984 Y96.551 E0.00967
G1 X108.834 Y96.563 E0.00475
G1 X110.510 Y98.239 E0.07481
G1 X109.973 Y98.239 E0.01694
G1 X108.300 Y96.566 E0.07470
G1 X107.932 Y96.535 E0.01166
G1 X107.664 Y96.467 E0.00872
G1 X109.436 Y98.239 E0.07911
G1 X108.900 Y98.239 E0.01694
G1 X99.269 Y88.609 E0.42986
G1 X98.732 Y88.609 E0.01694
G1 X108.363 Y98.239 E0.42986
G1 X107.826 Y98.239 E0.01694
G1 X98.196 Y88.609 E0.42986
G1 X97.659 Y88.609 E0.01694
G1 X107.289 Y98.239 E0.42986
G1 X106.752 Y98.239 E0.01694
G1 X97.122 Y88.609 E0.42986
G1 X96.585 Y88.609 E0.01694
G1 X106.216 Y98.239 E0.42986
G1 X105.679 Y98.239 E0.01694
G1 X96.048 Y88.609 E0.42986
G1 X95.512 Y88.609 E0.01694
G1 X105.142 Y98.239 E0.42986
G1 X104.605 Y98.239 E0.01694
G1 X94.975 Y88.609 E0.42986
G1 X94.438 Y88.609 E0.01694
G1 X104.068 Y98.239 E0.42986
G1 X103.531 Y98.239 E0.01694
G1 X93.901 Y88.609 E0.42986
G1 X93.364 Y88.609 E0.01694
G1 X102.995 Y98.239 E0.42986
G1 X102.458 Y98.239 E0.01694
