; generated by PrusaSlicer 2.4.0+win64 on 2022-01-04 at 16:30:23 UTC


;
;

;
;
; 

; external perimeters extrusion width = 0.45mm
; perimeters extrusion width = 0.45mm
; infill extrusion width = 0.45mm
; solid infill extrusion width = 0.45mm
; top infill extrusion width = 0.40mm
; first layer extrusion width = 0.42mm

M73 P0 R92
M201 X2500 Y2500 Z400 E5000 ; sets maximum accelerations, mm/sec^2
M203 X180 Y180 Z12 E80 ; sets maximum feedrates, mm/sec
M204 P1250 R1250 T2500 ; sets acceleration (P, T) and retract acceleration (R), mm/sec^2
M205 X8.00 Y8.00 Z2.00 E10.00 ; sets the jerk limits, mm/sec
M205 S0 T0 ; sets the minimum extruding and travel feed rate, mm/sec
M107
;TYPE:Custom
G90 ; use absolute coordinates
M83 ; extruder relative mode
M104 S170 ; set extruder temp for bed leveling
M140 S85 ; set bed temp
M109 R170 ; wait for bed leveling temp
M190 S85 ; wait for bed temp
M204 T1250 ; set travel acceleration
G28 ; home all without mesh bed level
G29 ; mesh bed leveling 
M204 T2500 ; restore travel acceleration
M104 S240 ; set extruder temp
G92 E0
G1 Y-2 X179 F2400
G1 Z3 F720
M109 S240 ; wait for extruder temp

; intro line
G1 X170 F1000
G1 Z0.2 F720
G1 X110 E8 F900
G1 X40 E10 F700
G92 E0

M221 S95 ; set flow
G21 ; set units to millimeters
G90 ; use absolute coordinates
M83 ; use relative distances for extrusion
M900 K0.2 ; Filament gcode
M107
;LAYER_CHANGE
;Z:0.2
;HEIGHT:0.2
;BEFORE_LAYER_CHANGE
G92 E0.0
;0.2


G1 E-3.2 F2400
G1 Z.2 F720
;AFTER_LAYER_CHANGE
;0.2
G1 Z.4
G1 X67.502 Y86.688 F9000
G1 Z.2 F720
G1 E3.2 F1500
M204 P800
;TYPE:Skirt/Brim
;WIDTH:0.42
G1 F1200
G1 X68.289 Y86.187 E.02927
G1 X69.492 Y85.911 E.03869
G1 X109.262 Y85.923 E1.24695
G1 X110.657 Y86.124 E.0442
G1 X111.664 Y86.481 E.03348
G1 X112.25 Y86.773 E.02053
G1 X113.194 Y87.402 E.03558
G1 X114.094 Y88.295 E.03972
G1 X114.484 Y88.798 E.01999
G1 X115.196 Y90.078 E.04591
G1 X115.508 Y90.998 E.03046
G1 X115.754 Y92.797 E.05693
G1 X115.754 Y101.256 E.26523
G1 X115.361 Y102.673 E.04612
G1 X114.295 Y103.687 E.04612
G1 X113 Y104.01 E.04186
G1 X69.367 Y104.01 E1.36808
G1 X67.564 Y103.338 E.06033
G1 X65.255 Y101.338 E.09579
G1 X64.44 Y100.113 E.04612
G1 X64.304 Y99.256 E.02722
G1 X64.304 Y90.785 E.2656
G1 X64.696 Y89.368 E.04612
G1 X65.219 Y88.734 E.02575
G1 X67.457 Y86.728 E.09424
M204 P1000
G1 X67.709 Y87.009 F9000
M204 P800
G1 F1200
G1 X68.454 Y86.526 E.02784
G1 X69.492 Y86.288 E.03339
G1 X109.226 Y86.299 E1.24583
G1 X110.551 Y86.486 E.04197
G1 X111.535 Y86.836 E.03273
G1 X112.962 Y87.7 E.05231
G1 X114.162 Y88.994 E.05533
G1 X114.841 Y90.205 E.04354
G1 X115.15 Y91.119 E.03024
G1 X115.377 Y92.797 E.0531
G1 X115.377 Y101.256 E.26523
G1 X114.986 Y102.563 E.04278
G1 X113.94 Y103.44 E.04278
G1 X113 Y103.633 E.03009
G1 X69.367 Y103.633 E1.36808
G1 X67.811 Y103.053 E.05207
G1 X65.502 Y101.053 E.09579
G1 X64.681 Y99.256 E.06194
G1 X64.681 Y90.785 E.2656
G1 X65.471 Y89.015 E.06077
G1 X67.664 Y87.049 E.09236
M204 P1000
; printing object Tube mount v2.stl id:0 copy 0
G1 E-2.24 F2400
;WIPE_START
G1 F7200
G1 X68.454 Y86.526 E-.29994
G1 X69.492 Y86.288 E-.33724
G1 X70.36 Y86.288 E-.27482
;WIPE_END
G1 E-.048 F2400
G1 Z.4 F720
G1 X106.258 Y93.212 F9000
G1 Z.2 F720
G1 E3.2 F1500
M204 P800
;TYPE:Perimeter
G1 F1200
G1 X106.292 Y93.154 E.00213
G1 X107.059 Y92.51 E.03138
G1 X108 Y92.168 E.03138
G1 X109 Y92.168 E.03138
G1 X109.941 Y92.51 E.03138
G1 X110.708 Y93.154 E.03138
G1 X111.208 Y94.02 E.03138
G1 X111.382 Y95.006 E.03138
G1 X111.208 Y95.992 E.03138
G1 X110.708 Y96.859 E.03138
G1 X109.941 Y97.502 E.03138
G1 X109 Y97.844 E.03138
G1 X108 Y97.844 E.03138
G1 X107.059 Y97.502 E.03138
G1 X106.292 Y96.859 E.03138
G1 X105.792 Y95.992 E.03138
G1 X105.618 Y95.006 E.03138
G1 X105.792 Y94.02 E.03138
G1 X106.228 Y93.264 E.02737
M204 P1000
G1 X106.385 Y93.747 F9000
M204 P800
G1 F1200
G1 X106.585 Y93.4 E.01259
G1 X107.25 Y92.842 E.02721
G1 X108.066 Y92.545 E.02721
G1 X108.934 Y92.545 E.02721
G1 X109.75 Y92.842 E.02721
G1 X110.415 Y93.4 E.02721
G1 X110.848 Y94.151 E.02721
G1 X110.999 Y95.006 E.02721
G1 X110.848 Y95.861 E.02721
G1 X110.415 Y96.613 E.02721
G1 X109.75 Y97.171 E.02721
G1 X108.934 Y97.467 E.02721
G1 X108.066 Y97.467 E.02721
G1 X107.25 Y97.171 E.02721
G1 X106.585 Y96.613 E.02721
G1 X106.152 Y95.861 E.02721
G1 X106.001 Y95.006 E.02721
G1 X106.152 Y94.151 E.02721
G1 X106.355 Y93.799 E.01275
M204 P1000
G1 X106.511 Y94.282 F9000
M204 P800
;TYPE:External perimeter
G1 F1200
G1 X106.879 Y93.646 E.02305
G1 X107.442 Y93.173 E.02305
G1 X108.133 Y92.922 E.02305
G1 X108.867 Y92.922 E.02305
G1 X109.558 Y93.173 E.02304
G1 X110.121 Y93.646 E.02305
G1 X110.489 Y94.282 E.02305
G1 X110.616 Y95.006 E.02305
G1 X110.489 Y95.73 E.02305
G1 X110.121 Y96.366 E.02305
G1 X109.558 Y96.839 E.02305
G1 X108.867 Y97.09 E.02304
G1 X108.133 Y97.09 E.02305
G1 X107.442 Y96.839 E.02305
G1 X106.879 Y96.366 E.02305
G1 X106.511 Y95.73 E.02305
G1 X106.384 Y95.006 E.02305
G1 X106.501 Y94.341 E.02116
M204 P1000
G1 X106.254 Y93.976 F9000
G1 E-2.24 F2400
;WIPE_START
G1 F7200
G1 X106.879 Y93.646 E-.25069
G1 X107.442 Y93.173 E-.23275
G1 X108.133 Y92.922 E-.23275
G1 X108.751 Y92.922 E-.19582
;WIPE_END
G1 E-.048 F2400
G1 Z.4 F720
G1 X74.267 Y95.663 F9000
G1 Z.2 F720
G1 E3.2 F1500
M204 P800
;TYPE:Perimeter
G1 F1200
G1 X74.209 Y95.992 E.01047
G1 X73.708 Y96.859 E.03139
G1 X72.941 Y97.502 E.03139
G1 X72.001 Y97.845 E.03139
G1 X70.999 Y97.845 E.03139
G1 X70.059 Y97.502 E.03139
G1 X69.292 Y96.859 E.03139
G1 X68.791 Y95.992 E.03139
G1 X68.618 Y95.006 E.03139
G1 X68.791 Y94.02 E.03139
G1 X69.292 Y93.153 E.03139
G1 X70.059 Y92.51 E.03139
G1 X70.999 Y92.168 E.03139
G1 X72.001 Y92.168 E.03139
G1 X72.941 Y92.51 E.03139
G1 X73.708 Y93.153 E.03139
G1 X74.209 Y94.02 E.03139
G1 X74.382 Y95.006 E.03139
G1 X74.277 Y95.604 E.01903
M204 P1000
G1 X73.942 Y95.335 F9000
M204 P800
G1 F1200
G1 X73.849 Y95.861 E.01676
G1 X73.415 Y96.613 E.02722
G1 X72.75 Y97.171 E.02722
G1 X71.934 Y97.468 E.02722
G1 X71.066 Y97.468 E.02722
G1 X70.25 Y97.171 E.02722
G1 X69.585 Y96.613 E.02722
G1 X69.151 Y95.861 E.02722
G1 X69.001 Y95.006 E.02722
G1 X69.151 Y94.151 E.02722
G1 X69.585 Y93.399 E.02722
G1 X70.25 Y92.842 E.02722
G1 X71.066 Y92.545 E.02722
G1 X71.934 Y92.545 E.02722
G1 X72.75 Y92.842 E.02722
G1 X73.415 Y93.399 E.02722
G1 X73.849 Y94.151 E.02722
G1 X73.999 Y95.006 E.02722
G1 X73.952 Y95.275 E.00858
M204 P1000
G1 X73.617 Y95.006 F9000
M204 P800
;TYPE:External perimeter
G1 F1200
G1 X73.489 Y95.73 E.02305
G1 X73.121 Y96.367 E.02305
G1 X72.558 Y96.839 E.02305
G1 X71.868 Y97.091 E.02305
G1 X71.132 Y97.091 E.02305
G1 X70.442 Y96.839 E.02305
G1 X69.879 Y96.367 E.02305
G1 X69.511 Y95.73 E.02305
G1 X69.383 Y95.006 E.02305
G1 X69.511 Y94.282 E.02305
G1 X69.879 Y93.646 E.02305
G1 X70.442 Y93.173 E.02305
G1 X71.132 Y92.922 E.02305
G1 X71.868 Y92.922 E.02305
G1 X72.558 Y93.173 E.02305
G1 X73.121 Y93.646 E.02305
G1 X73.489 Y94.282 E.02305
G1 X73.606 Y94.947 E.02117
M204 P1000
G1 X73.963 Y95.206 F9000
G1 E-2.24 F2400
;WIPE_START
G1 F7200
G1 X73.489 Y95.73 E-.25072
G1 X73.121 Y96.367 E-.23278
G1 X72.558 Y96.839 E-.23278
G1 X71.977 Y97.051 E-.19573
;WIPE_END
G1 E-.048 F2400
G1 Z.4 F720
G1 X69.196 Y99.568 F9000
G1 Z.2 F720
G1 E3.2 F1500
M204 P800
;TYPE:Perimeter
G1 F1200
G1 X68.222 Y98.724 E.04042
G1 X68.222 Y91.305 E.23263
G1 X69.793 Y89.896 E.06617
G1 X108.934 Y89.896 E1.22722
G1 X109.621 Y89.976 E.02171
G1 X110.213 Y90.191 E.01974
G1 X110.748 Y90.539 E.02002
G1 X111.199 Y91.006 E.02036
G1 X111.542 Y91.571 E.02071
G1 X111.756 Y92.204 E.02097
G1 X111.836 Y92.934 E.02303
G1 X111.836 Y100.092 E.22442
G1 X69.801 Y100.092 E1.31797
G1 X69.242 Y99.608 E.0232
M204 P1000
G1 X69.358 Y100.207 F9000
M204 P800
G1 F1200
G1 X67.845 Y98.897 E.06277
G1 X67.845 Y91.136 E.24331
G1 X69.649 Y89.519 E.07597
G1 X108.956 Y89.519 E1.23243
G1 X109.708 Y89.607 E.02377
G1 X110.382 Y89.851 E.02248
G1 X110.99 Y90.246 E.02272
G1 X111.5 Y90.774 E.02302
G1 X111.886 Y91.41 E.02334
G1 X112.127 Y92.122 E.02356
G1 X112.213 Y92.914 E.02496
G1 X112.213 Y100.469 E.23689
G1 X69.661 Y100.469 E1.3342
G1 X69.404 Y100.246 E.01066
M204 P1000
M73 P0 R91
G1 X69.52 Y100.846 F9000
M204 P800
;TYPE:External perimeter
G1 F1200
G1 X67.468 Y99.069 E.08512
G1 X67.468 Y90.968 E.25399
G1 X69.505 Y89.142 E.08577
G1 X108.977 Y89.142 E1.23764
G1 X109.796 Y89.237 E.02583
G1 X110.552 Y89.511 E.02521
G1 X111.231 Y89.953 E.02542
G1 X111.8 Y90.543 E.02568
G1 X112.23 Y91.25 E.02596
G1 X112.497 Y92.041 E.02616
G1 X112.59 Y92.893 E.0269
G1 X112.59 Y100.846 E.24935
G1 X69.58 Y100.846 E1.34855
M204 P1000
G1 X69.477 Y100.448 F9000
G1 E-2.24 F2400
;WIPE_START
G1 F7200
G1 X67.468 Y99.069 E-.87417
G1 X67.468 Y98.949 E-.03783
;WIPE_END
G1 E-.048 F2400
G1 Z.4 F720
G1 X68.55 Y96.231 F9000
G1 Z.2 F720
G1 E3.2 F1500
M204 P800
;TYPE:Gap fill
;WIDTH:0.264938
G1 F1200
G1 X68.518 Y96.111 E.00228
M204 P1000
M204 P800
;WIDTH:0.258464
G1 X68.512 Y96.075 E.00066
M204 P1000
M204 P800
;WIDTH:0.245564
G1 X68.492 Y95.851 E.00379
M204 P1000
M204 P800
;WIDTH:0.207503
G1 X68.473 Y95.627 E.00307
M204 P1000
M204 P800
;WIDTH:0.169442
G1 X68.453 Y95.404 E.00236
M204 P1000
M204 P800
;WIDTH:0.131381
G1 X68.433 Y95.18 E.00165
M204 P1000
G1 X68.433 Y94.832 F9000
M204 P800
;WIDTH:0.131383
G1 F1200
G1 X68.453 Y94.609 E.00165
M204 P1000
M204 P800
;WIDTH:0.169445
G1 X68.473 Y94.385 E.00236
M204 P1000
M204 P800
;WIDTH:0.207507
G1 X68.492 Y94.161 E.00307
M204 P1000
M204 P800
;WIDTH:0.245569
G1 X68.512 Y93.937 E.00379
M204 P1000
M204 P800
;WIDTH:0.258467
G1 X68.518 Y93.901 E.00066
M204 P1000
M204 P800
;WIDTH:0.264939
G1 X68.55 Y93.782 E.00228
M204 P1000
G1 E-2.24 F2400
;WIPE_START
G1 F7200
G1 X68.518 Y93.901 E-.03911
;WIPE_END
G1 E-.92089 F2400
G1 Z.4 F720
G1 X111.446 Y91.638 F9000
G1 Z.2 F720
G1 E3.2 F1500
M204 P800
;TYPE:Solid infill
;WIDTH:0.422358
G1 F1200
G1 X110.564 Y90.756 E.03935
G1 X110.086 Y90.446 E.01797
G1 X109.52 Y90.249 E.0189
G1 X111.449 Y92.178 E.08606
G1 X111.479 Y92.265 E.00291
G1 X111.537 Y92.803 E.01705
G1 X108.913 Y90.179 E.11707
G1 X108.377 Y90.179 E.01693
G1 X111.553 Y93.355 E.14173
G1 X111.553 Y93.593 E.00752
G1 X111.301 Y93.616 E.00798
G1 X110.928 Y92.969 E.02355
G1 X110.085 Y92.261 E.03473
G1 X109.83 Y92.169 E.00855
G1 X107.84 Y90.179 E.08879
G1 X107.303 Y90.179 E.01693
G1 X109.01 Y91.885 E.07613
G1 X108.473 Y91.885 E.01693
G1 X106.767 Y90.179 E.07613
G1 X106.23 Y90.179 E.01693
G1 X107.94 Y91.889 E.07628
G1 X107.546 Y92.032 E.01321
G1 X105.694 Y90.179 E.08267
G1 X105.157 Y90.179 E.01693
G1 X107.153 Y92.175 E.08906
G1 X106.915 Y92.261 E.00798
G1 X106.8 Y92.358 E.00476
G1 X104.62 Y90.179 E.09725
G1 X104.084 Y90.179 E.01693
G1 X106.508 Y92.603 E.10817
G1 X106.216 Y92.848 E.01202
M73 P1 R91
G1 X103.547 Y90.179 E.11909
G1 X103.011 Y90.179 E.01693
G1 X105.973 Y93.141 E.13217
G1 X105.776 Y93.481 E.01239
G1 X102.474 Y90.179 E.14735
G1 X101.937 Y90.179 E.01693
G1 X105.58 Y93.821 E.16253
G1 X105.522 Y93.922 E.00367
G1 X105.465 Y94.243 E.01029
G1 X101.401 Y90.179 E.18135
G1 X100.864 Y90.179 E.01693
G1 X105.385 Y94.699 E.20171
G1 X105.331 Y95.006 E.00982
G1 X105.368 Y95.22 E.00684
G1 X100.328 Y90.179 E.22492
G1 X99.791 Y90.179 E.01693
G1 X105.739 Y96.127 E.2654
M204 P1000
G1 E-2.24 F2400
;WIPE_START
G1 F7200
G1 X103.703 Y94.091 E-.912
;WIPE_END
G1 E-.048 F2400
G1 Z.4 F720
G1 X111.204 Y96.226 F9000
G1 Z.2 F720
G1 E3.2 F1500
M204 P800
G1 F1200
G1 X111.553 Y96.575 E.01558
G1 X111.553 Y97.112 E.01693
G1 X111.132 Y96.69 E.0188
G1 X110.935 Y97.03 E.01239
G1 X111.553 Y97.648 E.02756
G1 X111.553 Y98.185 E.01693
G1 X110.647 Y97.279 E.04042
G1 X110.355 Y97.524 E.01202
G1 X111.553 Y98.721 E.05344
G1 X111.553 Y99.258 E.01693
G1 X110.056 Y97.761 E.06679
G1 X109.663 Y97.904 E.01321
G1 X111.553 Y99.809 E.08467
G1 X111.031 Y99.809 E.01647
G1 X109.269 Y98.048 E.0786
G1 X109.05 Y98.127 E.00736
G1 X108.813 Y98.127 E.0075
G1 X110.494 Y99.809 E.07505
G1 X109.958 Y99.809 E.01693
G1 X108.276 Y98.127 E.07505
G1 X107.95 Y98.127 E.01029
G1 X107.619 Y98.007 E.0111
G1 X109.421 Y99.809 E.08042
G1 X108.885 Y99.809 E.01693
G1 X99.254 Y90.179 E.42969
G1 X98.718 Y90.179 E.01693
G1 X108.348 Y99.809 E.42969
G1 X107.811 Y99.809 E.01693
G1 X98.181 Y90.179 E.42969
G1 X97.645 Y90.179 E.01693
G1 X107.275 Y99.809 E.42969
G1 X106.738 Y99.809 E.01693
G1 X97.108 Y90.179 E.42969
G1 X96.571 Y90.179 E.01693
G1 X106.202 Y99.809 E.42969
G1 X105.665 Y99.809 E.01693
G1 X96.035 Y90.179 E.42969
G1 X95.498 Y90.179 E.01693
G1 X105.128 Y99.809 E.42969
G1 X104.592 Y99.809 E.01693
G1 X94.961 Y90.179 E.42969
G1 X94.425 Y90.179 E.01693
G1 X104.055 Y99.809 E.42969
G1 X103.519 Y99.809 E.01693
G1 X93.888 Y90.179 E.42969
G1 X93.352 Y90.179 E.01693
G1 X102.982 Y99.809 E.42969
G1 X102.445 Y99.809 E.01693
G1 X92.815 Y90.179 E.42969
G1 X92.278 Y90.179 E.01693
G1 X101.909 Y99.809 E.42969
G1 X101.372 Y99.809 E.01693
G1 X91.742 Y90.179 E.42969
G1 X91.205 Y90.179 E.01693
G1 X100.836 Y99.809 E.42969
G1 X100.299 Y99.809 E.01693
G1 X90.669 Y90.179 E.42969
G1 X90.132 Y90.179 E.01693
G1 X99.762 Y99.809 E.42969
G1 X99.226 Y99.809 E.01693
G1 X89.595 Y90.179 E.42969
G1 X89.059 Y90.179 E.01693
G1 X98.689 Y99.809 E.42969
G1 X98.153 Y99.809 E.01693
G1 X88.522 Y90.179 E.42969
G1 X87.986 Y90.179 E.01693
G1 X97.616 Y99.809 E.42969
G1 X97.079 Y99.809 E.01693
G1 X87.449 Y90.179 E.42969
G1 X86.912 Y90.179 E.01693
G1 X96.543 Y99.809 E.42969
G1 X96.006 Y99.809 E.01693
G1 X86.376 Y90.179 E.42969
G1 X85.839 Y90.179 E.01693
G1 X95.469 Y99.809 E.42969
G1 X94.933 Y99.809 E.01693
G1 X85.303 Y90.179 E.42969
G1 X84.766 Y90.179 E.01693
G1 X94.396 Y99.809 E.42969
G1 X93.86 Y99.809 E.01693
G1 X84.229 Y90.179 E.42969
G1 X83.693 Y90.179 E.01693
G1 X93.323 Y99.809 E.42969
G1 X92.786 Y99.809 E.01693
G1 X83.156 Y90.179 E.42969
G1 X82.62 Y90.179 E.01693
G1 X92.25 Y99.809 E.42969
G1 X91.713 Y99.809 E.01693
G1 X82.083 Y90.179 E.42969
G1 X81.546 Y90.179 E.01693
G1 X91.177 Y99.809 E.42969
G1 X90.64 Y99.809 E.01693
G1 X81.01 Y90.179 E.42969
G1 X80.473 Y90.179 E.01693
G1 X90.103 Y99.809 E.42969
G1 X89.567 Y99.809 E.01693
G1 X79.937 Y90.179 E.42969
G1 X79.4 Y90.179 E.01693
G1 X89.03 Y99.809 E.42969
G1 X88.494 Y99.809 E.01693
G1 X78.863 Y90.179 E.42969
G1 X78.327 Y90.179 E.01693
G1 X87.957 Y99.809 E.42969
G1 X87.42 Y99.809 E.01693
G1 X77.79 Y90.179 E.42969
G1 X77.253 Y90.179 E.01693
G1 X86.884 Y99.809 E.42969
G1 X86.347 Y99.809 E.01693
G1 X76.717 Y90.179 E.42969
G1 X76.18 Y90.179 E.01693
G1 X85.811 Y99.809 E.42969
G1 X85.274 Y99.809 E.01693
G1 X75.644 Y90.179 E.42969
G1 X75.107 Y90.179 E.01693
G1 X84.737 Y99.809 E.42969
G1 X84.201 Y99.809 E.01693
G1 X74.57 Y90.179 E.42969
G1 X74.034 Y90.179 E.01693
G1 X83.664 Y99.809 E.42969
G1 X83.128 Y99.809 E.01693
G1 X73.497 Y90.179 E.42969
G1 X72.961 Y90.179 E.01693
G1 X82.591 Y99.809 E.42969
G1 X82.054 Y99.809 E.01693
G1 X72.424 Y90.179 E.42969
G1 X71.887 Y90.179 E.01693
G1 X81.518 Y99.809 E.42969
G1 X80.981 Y99.809 E.01693
G1 X71.351 Y90.179 E.42969
G1 X70.814 Y90.179 E.01693
G1 X72.789 Y92.154 E.08811
G1 X73.085 Y92.261 E.00994
G1 X73.928 Y92.969 E.03473
G1 X74.37 Y93.735 E.02792
G1 X80.445 Y99.809 E.27102
G1 X79.908 Y99.809 E.01693
G1 X74.576 Y94.478 E.23789
G1 X74.67 Y95.006 E.01693
G1 X74.654 Y95.092 E.00276
G1 X79.371 Y99.809 E.21046
G1 X78.835 Y99.809 E.01693
G1 X74.574 Y95.548 E.19011
G1 X74.493 Y96.005 E.01461
G1 X78.298 Y99.809 E.16976
G1 X77.761 Y99.809 E.01693
G1 X74.319 Y96.367 E.15361
G1 X74.122 Y96.707 E.01239
G1 X77.225 Y99.809 E.13843
G1 X76.688 Y99.809 E.01693
G1 X73.925 Y97.046 E.12329
G1 X73.633 Y97.291 E.01202
G1 X76.152 Y99.809 E.11237
G1 X75.615 Y99.809 E.01693
G1 X73.342 Y97.536 E.10144
G1 X73.085 Y97.751 E.01057
G1 X73.038 Y97.768 E.00159
G1 X75.078 Y99.809 E.09106
G1 X74.542 Y99.809 E.01693
G1 X72.644 Y97.911 E.08468
G1 X72.251 Y98.055 E.01321
G1 X74.005 Y99.809 E.07829
G1 X73.469 Y99.809 E.01693
G1 X71.787 Y98.128 E.07503
G1 X71.25 Y98.128 E.01693
G1 X72.932 Y99.809 E.07503
G1 X72.395 Y99.809 E.01693
G1 X70.295 Y97.709 E.09372
M204 P1000
G1 E-2.24 F2400
;WIPE_START
G1 F7200
G1 X72.331 Y99.745 E-.912
;WIPE_END
G1 E-.048 F2400
G1 Z.4 F720
G1 X68.43 Y96.38 F9000
G1 Z.2 F720
G1 E3.2 F1500
M204 P800
G1 F1200
G1 X71.859 Y99.809 E.15301
G1 X71.322 Y99.809 E.01693
