; generated by PrusaSlicer 2.3.3+win64 on 2021-09-28 at 15:12:49 UTC


;
;

;
;
; 

; external perimeters extrusion width = 0.45mm
; perimeters extrusion width = 0.45mm
; infill extrusion width = 0.45mm
; solid infill extrusion width = 0.45mm
; top infill extrusion width = 0.40mm
; first layer extrusion width = 0.42mm

M73 P0 R51
M201 X1250 Y1250 Z400 E5000 ; sets maximum accelerations, mm/sec^2
M203 X180 Y180 Z12 E80 ; sets maximum feedrates, mm/sec
M204 P1250 R1250 T1250 ; sets acceleration (P, T) and retract acceleration (R), mm/sec^2
M205 X8.00 Y8.00 Z2.00 E10.00 ; sets the jerk limits, mm/sec
M205 S0 T0 ; sets the minimum extruding and travel feed rate, mm/sec
M107
;TYPE:Custom
G90 ; use absolute coordinates
M83 ; extruder relative mode
M104 S170 ; set extruder temp for bed leveling
M140 S85 ; set bed temp
M109 R170 ; wait for bed leveling temp
M190 S85 ; wait for bed temp
G28 ; home all without mesh bed level
G29 ; mesh bed leveling 
M104 S230 ; set extruder temp
G92 E0.0
G1 Y-2.0 X179 F2400
G1 Z3 F720
M109 S230 ; wait for extruder temp

; intro line
G1 X170 F1000
G1 Z0.2 F720
G1 X110.0 E8.0 F900
G1 X40.0 E10.0 F700
G92 E0.0

M221 S95 ; set flow
G21 ; set units to millimeters
G90 ; use absolute coordinates
M83 ; use relative distances for extrusion
M900 K0.2 ; Filament gcode
;LAYER_CHANGE
;Z:0.2
;HEIGHT:0.2
;BEFORE_LAYER_CHANGE
G92 E0.0
;0.2


G1 E-3.20000 F2400.000
G1 Z0.200 F9000.000
;AFTER_LAYER_CHANGE
;0.2
G1 Z0.400
G1 X23.234 Y48.005
G1 Z0.200
G1 E3.20000 F1500.000
M204 S800
;TYPE:Skirt
;WIDTH:0.42
G1 F1200.000
G1 X24.198 Y47.675 E0.03194
G1 X25.191 Y47.449 E0.03194
G1 X26.874 Y47.298 E0.05298
G1 X153.104 Y47.298 E3.95785
M73 P0 R50
G1 X154.916 Y47.466 E0.05705
G1 X156.669 Y47.965 E0.05715
G1 X158.300 Y48.778 E0.05715
G1 X159.760 Y49.881 E0.05739
G1 X160.982 Y51.223 E0.05691
G1 X161.945 Y52.780 E0.05739
G1 X162.603 Y54.484 E0.05727
G1 X162.941 Y56.336 E0.05905
G1 X162.940 Y123.665 E2.11103
G1 X162.808 Y124.644 E0.03099
G1 X162.571 Y125.623 E0.03158
G1 X161.984 Y127.139 E0.05095
G1 X161.499 Y128.022 E0.03158
G1 X160.920 Y128.856 E0.03182
G1 X159.831 Y130.051 E0.05072
G1 X158.270 Y131.241 E0.06154
G1 X156.766 Y131.995 E0.05274
G1 X155.802 Y132.325 E0.03194
G1 X154.809 Y132.551 E0.03194
G1 X153.126 Y132.702 E0.05298
G1 X26.843 Y132.701 E3.95952
M73 P1 R50
G1 X25.186 Y132.551 E0.05217
G1 X24.200 Y132.326 E0.03170
G1 X23.240 Y131.997 E0.03182
G1 X21.785 Y131.273 E0.05096
G1 X20.947 Y130.707 E0.03170
G1 X20.171 Y130.053 E0.03182
G1 X19.076 Y128.852 E0.05095
G1 X18.484 Y127.995 E0.03266
G1 X17.730 Y126.491 E0.05274
G1 X17.401 Y125.531 E0.03182
G1 X17.174 Y124.538 E0.03194
G1 X17.023 Y122.874 E0.05239
G1 X17.025 Y57.076 E2.06305
G1 X17.175 Y55.457 E0.05098
G1 X17.400 Y54.471 E0.03170
G1 X17.728 Y53.515 E0.03170
G1 X18.454 Y52.057 E0.05107
G1 X19.018 Y51.222 E0.03159
G1 X19.672 Y50.446 E0.03182
G1 X20.873 Y49.351 E0.05095
G1 X21.730 Y48.759 E0.03266
G1 X23.180 Y48.032 E0.05086
M204 S1250
; printing object RPI base plate.stl id:0 copy 0
G1 E-2.24000 F2400.000
;WIPE_START
G1 F7200.000
G1 X24.198 Y47.675 E-0.34144
G1 X25.191 Y47.449 E-0.32259
G1 X25.971 Y47.379 E-0.24796
;WIPE_END
G1 E-0.04800 F2400.000
G1 Z0.400 F9000.000
G1 X129.287 Y76.963
G1 Z0.200
G1 E3.20000 F1500.000
M204 S800
;TYPE:Perimeter
G1 F1200.000
G1 X132.034 Y76.963 E0.08614
G1 X132.484 Y77.002 E0.01417
G1 X132.954 Y77.128 E0.01525
G1 X133.395 Y77.334 E0.01525
G1 X133.793 Y77.613 E0.01525
G1 X134.137 Y77.957 E0.01525
G1 X134.416 Y78.355 E0.01525
G1 X134.622 Y78.796 E0.01525
G1 X134.748 Y79.266 E0.01525
G1 X134.787 Y79.716 E0.01417
G1 X134.787 Y95.784 E0.50382
G1 X134.748 Y96.234 E0.01417
G1 X134.622 Y96.704 E0.01525
G1 X134.416 Y97.145 E0.01525
G1 X134.137 Y97.543 E0.01525
G1 X133.793 Y97.887 E0.01525
G1 X133.395 Y98.166 E0.01525
G1 X132.954 Y98.372 E0.01525
G1 X132.484 Y98.498 E0.01525
G1 X132.034 Y98.537 E0.01417
G1 X129.287 Y98.537 E0.08614
G1 X129.287 Y113.778 E0.47787
G1 X129.251 Y114.289 E0.01607
G1 X129.136 Y114.818 E0.01695
G1 X128.947 Y115.324 E0.01695
G1 X128.688 Y115.799 E0.01695
G1 X128.364 Y116.231 E0.01695
G1 X127.981 Y116.614 E0.01695
G1 X127.549 Y116.938 E0.01695
G1 X127.074 Y117.197 E0.01695
G1 X126.568 Y117.386 E0.01695
G1 X126.039 Y117.501 E0.01695
G1 X125.528 Y117.537 E0.01607
G1 X64.472 Y117.537 E1.91437
G1 X63.961 Y117.501 E0.01607
G1 X63.432 Y117.386 E0.01695
G1 X62.926 Y117.197 E0.01695
G1 X62.451 Y116.938 E0.01695
G1 X62.019 Y116.614 E0.01695
G1 X61.636 Y116.231 E0.01695
G1 X61.349 Y115.848 E0.01501
G1 X61.055 Y115.328 E0.01873
G1 X60.864 Y114.818 E0.01710
G1 X60.749 Y114.289 E0.01695
G1 X60.713 Y113.778 E0.01607
G1 X60.713 Y61.722 E1.63219
G1 X60.749 Y61.211 E0.01607
G1 X60.864 Y60.682 E0.01695
G1 X61.053 Y60.176 E0.01695
G1 X61.312 Y59.701 E0.01695
G1 X61.636 Y59.269 E0.01695
G1 X62.019 Y58.886 E0.01695
G1 X62.451 Y58.562 E0.01695
G1 X62.926 Y58.303 E0.01695
G1 X63.432 Y58.114 E0.01695
G1 X63.961 Y57.999 E0.01695
G1 X64.472 Y57.963 E0.01607
G1 X125.528 Y57.963 E1.91437
G1 X126.039 Y57.999 E0.01607
G1 X126.568 Y58.114 E0.01695
G1 X127.074 Y58.303 E0.01695
G1 X127.549 Y58.562 E0.01695
G1 X127.981 Y58.886 E0.01695
G1 X128.364 Y59.269 E0.01695
G1 X128.688 Y59.701 E0.01695
G1 X128.947 Y60.176 E0.01695
G1 X129.136 Y60.682 E0.01695
G1 X129.251 Y61.211 E0.01695
G1 X129.287 Y61.722 E0.01607
G1 X129.287 Y76.903 E0.47599
M204 S1250
G1 X128.910 Y77.340 F9000.000
M204 S800
;TYPE:External perimeter
G1 F1200.000
G1 X132.018 Y77.340 E0.09745
G1 X132.419 Y77.375 E0.01262
G1 X132.825 Y77.484 E0.01318
G1 X133.206 Y77.662 E0.01318
G1 X133.550 Y77.903 E0.01318
G1 X133.847 Y78.200 E0.01318
G1 X134.088 Y78.544 E0.01318
G1 X134.266 Y78.925 E0.01318
G1 X134.375 Y79.331 E0.01318
G1 X134.410 Y79.732 E0.01262
G1 X134.410 Y95.768 E0.50279
G1 X134.375 Y96.169 E0.01262
G1 X134.266 Y96.575 E0.01318
G1 X134.088 Y96.956 E0.01318
G1 X133.847 Y97.300 E0.01318
G1 X133.550 Y97.597 E0.01318
G1 X133.206 Y97.838 E0.01318
G1 X132.825 Y98.016 E0.01318
G1 X132.419 Y98.125 E0.01318
G1 X132.018 Y98.160 E0.01262
G1 X128.910 Y98.160 E0.09745
G1 X128.910 Y113.765 E0.48927
G1 X128.876 Y114.235 E0.01480
G1 X128.773 Y114.711 E0.01526
G1 X128.603 Y115.167 E0.01526
G1 X128.370 Y115.594 E0.01526
G1 X128.078 Y115.984 E0.01526
G1 X127.734 Y116.328 E0.01526
G1 X127.344 Y116.620 E0.01526
G1 X126.917 Y116.853 E0.01526
G1 X126.461 Y117.023 E0.01526
G1 X125.985 Y117.126 E0.01526
G1 X125.515 Y117.160 E0.01480
G1 X64.485 Y117.160 E1.91353
G1 X64.015 Y117.126 E0.01480
G1 X63.539 Y117.023 E0.01526
G1 X63.083 Y116.853 E0.01526
G1 X62.656 Y116.620 E0.01526
G1 X62.266 Y116.328 E0.01526
G1 X61.922 Y115.984 E0.01526
G1 X61.666 Y115.641 E0.01342
G1 X61.398 Y115.169 E0.01703
G1 X61.227 Y114.711 E0.01531
G1 X61.124 Y114.235 E0.01526
G1 X61.090 Y113.765 E0.01480
G1 X61.090 Y61.735 E1.63134
M73 P2 R50
G1 X61.124 Y61.265 E0.01480
G1 X61.227 Y60.789 E0.01526
G1 X61.397 Y60.333 E0.01526
G1 X61.630 Y59.906 E0.01526
G1 X61.922 Y59.516 E0.01526
G1 X62.266 Y59.172 E0.01526
G1 X62.656 Y58.880 E0.01526
G1 X63.083 Y58.647 E0.01526
G1 X63.539 Y58.477 E0.01526
G1 X64.015 Y58.374 E0.01526
G1 X64.485 Y58.340 E0.01480
G1 X125.515 Y58.340 E1.91353
G1 X125.985 Y58.374 E0.01480
G1 X126.461 Y58.477 E0.01526
G1 X126.917 Y58.647 E0.01526
G1 X127.344 Y58.880 E0.01526
G1 X127.734 Y59.172 E0.01526
G1 X128.078 Y59.516 E0.01526
G1 X128.370 Y59.906 E0.01526
G1 X128.603 Y60.333 E0.01526
G1 X128.773 Y60.789 E0.01526
G1 X128.876 Y61.265 E0.01526
G1 X128.910 Y61.735 E0.01480
G1 X128.910 Y77.280 E0.48739
M204 S1250
G1 X129.256 Y77.140 F9000.000
G1 E-2.24000 F2400.000
;WIPE_START
G1 F7200.000
G1 X131.789 Y77.336 E-0.91200
;WIPE_END
G1 E-0.04800 F2400.000
G1 Z0.400 F9000.000
G1 X30.128 Y57.599
G1 Z0.200
G1 E3.20000 F1500.000
M204 S800
;TYPE:Perimeter
G1 F1200.000
G1 X30.018 Y58.010 E0.01334
G1 X29.838 Y58.395 E0.01334
G1 X29.612 Y58.718 E0.01236
G1 X29.297 Y59.042 E0.01417
G1 X28.945 Y59.288 E0.01346
G1 X28.560 Y59.468 E0.01334
G1 X28.149 Y59.578 E0.01334
G1 X27.759 Y59.612 E0.01225
G1 X26.041 Y59.612 E0.05389
G1 X25.651 Y59.578 E0.01225
G1 X25.240 Y59.468 E0.01334
G1 X24.855 Y59.288 E0.01334
G1 X24.507 Y59.044 E0.01334
G1 X24.206 Y58.743 E0.01334
G1 X23.962 Y58.395 E0.01334
G1 X23.782 Y58.010 E0.01334
G1 X23.672 Y57.599 E0.01334
G1 X23.635 Y57.175 E0.01334
G1 X23.672 Y56.751 E0.01334
G1 X23.782 Y56.340 E0.01334
G1 X23.962 Y55.955 E0.01334
G1 X24.206 Y55.607 E0.01334
G1 X24.507 Y55.306 E0.01334
G1 X24.855 Y55.062 E0.01334
G1 X25.240 Y54.882 E0.01334
G1 X25.651 Y54.772 E0.01334
G1 X26.041 Y54.738 E0.01225
G1 X27.759 Y54.738 E0.05389
G1 X28.149 Y54.772 E0.01225
G1 X28.560 Y54.882 E0.01334
G1 X28.945 Y55.062 E0.01334
G1 X29.293 Y55.306 E0.01334
G1 X29.594 Y55.607 E0.01334
G1 X29.838 Y55.955 E0.01334
G1 X30.018 Y56.340 E0.01334
G1 X30.128 Y56.751 E0.01334
G1 X30.165 Y57.175 E0.01334
G1 X30.133 Y57.539 E0.01145
M204 S1250
G1 X29.758 Y57.506 F9000.000
M204 S800
;TYPE:External perimeter
G1 F1200.000
G1 X29.662 Y57.880 E0.01210
G1 X29.510 Y58.206 E0.01127
G1 X29.321 Y58.477 E0.01037
G1 X29.051 Y58.753 E0.01210
G1 X28.756 Y58.960 E0.01131
G1 X28.430 Y59.112 E0.01127
G1 X28.083 Y59.205 E0.01127
G1 X27.743 Y59.235 E0.01070
G1 X26.057 Y59.235 E0.05286
G1 X25.717 Y59.205 E0.01070
G1 X25.370 Y59.112 E0.01127
G1 X25.044 Y58.960 E0.01127
G1 X24.750 Y58.754 E0.01127
G1 X24.496 Y58.500 E0.01127
G1 X24.290 Y58.206 E0.01127
G1 X24.138 Y57.880 E0.01127
G1 X24.045 Y57.533 E0.01127
G1 X24.013 Y57.175 E0.01127
G1 X24.045 Y56.817 E0.01127
G1 X24.138 Y56.470 E0.01127
G1 X24.290 Y56.144 E0.01127
G1 X24.496 Y55.850 E0.01127
G1 X24.750 Y55.596 E0.01127
G1 X25.044 Y55.390 E0.01127
G1 X25.370 Y55.238 E0.01127
G1 X25.717 Y55.145 E0.01127
G1 X26.057 Y55.115 E0.01070
G1 X27.743 Y55.115 E0.05286
G1 X28.083 Y55.145 E0.01070
G1 X28.430 Y55.238 E0.01127
G1 X28.756 Y55.390 E0.01127
G1 X29.050 Y55.596 E0.01127
G1 X29.304 Y55.850 E0.01127
G1 X29.510 Y56.144 E0.01127
G1 X29.662 Y56.470 E0.01127
G1 X29.755 Y56.817 E0.01127
G1 X29.787 Y57.175 E0.01127
G1 X29.763 Y57.446 E0.00854
M204 S1250
G1 X30.056 Y57.751 F9000.000
G1 E-2.24000 F2400.000
;WIPE_START
G1 F7200.000
G1 X29.662 Y57.880 E-0.14101
G1 X29.510 Y58.206 E-0.11380
G1 X29.321 Y58.477 E-0.10477
G1 X29.051 Y58.753 E-0.12225
G1 X28.756 Y58.960 E-0.11425
G1 X28.430 Y59.112 E-0.11380
G1 X28.083 Y59.205 E-0.11380
G1 X27.805 Y59.230 E-0.08834
;WIPE_END
G1 E-0.04800 F2400.000
G1 Z0.400 F9000.000
G1 X28.149 Y120.422
G1 Z0.200
G1 E3.20000 F1500.000
M204 S800
;TYPE:Perimeter
G1 F1200.000
G1 X28.560 Y120.532 E0.01334
G1 X28.945 Y120.712 E0.01334
G1 X29.293 Y120.956 E0.01334
G1 X29.594 Y121.257 E0.01334
G1 X29.838 Y121.605 E0.01334
G1 X30.018 Y121.990 E0.01334
G1 X30.128 Y122.401 E0.01334
G1 X30.165 Y122.825 E0.01334
G1 X30.128 Y123.249 E0.01334
G1 X30.018 Y123.660 E0.01334
G1 X29.838 Y124.045 E0.01334
G1 X29.594 Y124.393 E0.01334
G1 X29.293 Y124.694 E0.01334
G1 X28.945 Y124.938 E0.01334
G1 X28.560 Y125.118 E0.01334
G1 X28.149 Y125.228 E0.01334
G1 X27.759 Y125.262 E0.01225
G1 X26.041 Y125.262 E0.05389
G1 X25.651 Y125.228 E0.01225
G1 X25.240 Y125.118 E0.01334
G1 X24.855 Y124.938 E0.01334
G1 X24.507 Y124.694 E0.01334
G1 X24.206 Y124.393 E0.01334
G1 X23.962 Y124.045 E0.01334
G1 X23.782 Y123.660 E0.01334
G1 X23.672 Y123.249 E0.01334
G1 X23.635 Y122.825 E0.01334
G1 X23.672 Y122.401 E0.01334
G1 X23.782 Y121.990 E0.01334
G1 X23.962 Y121.605 E0.01334
G1 X24.206 Y121.257 E0.01334
G1 X24.507 Y120.956 E0.01334
G1 X24.855 Y120.712 E0.01334
G1 X25.240 Y120.532 E0.01334
G1 X25.651 Y120.422 E0.01334
G1 X26.041 Y120.388 E0.01225
G1 X27.759 Y120.388 E0.05389
G1 X28.089 Y120.417 E0.01037
M204 S1250
G1 X28.056 Y120.792 F9000.000
M204 S800
;TYPE:External perimeter
G1 F1200.000
G1 X28.430 Y120.888 E0.01210
G1 X28.756 Y121.040 E0.01127
G1 X29.050 Y121.246 E0.01127
G1 X29.304 Y121.500 E0.01127
G1 X29.510 Y121.794 E0.01127
G1 X29.662 Y122.120 E0.01127
G1 X29.755 Y122.467 E0.01127
G1 X29.787 Y122.825 E0.01127
G1 X29.755 Y123.183 E0.01127
G1 X29.662 Y123.530 E0.01127
G1 X29.510 Y123.856 E0.01127
G1 X29.304 Y124.150 E0.01127
G1 X29.050 Y124.404 E0.01127
G1 X28.756 Y124.610 E0.01127
G1 X28.430 Y124.762 E0.01127
G1 X28.083 Y124.855 E0.01127
G1 X27.743 Y124.885 E0.01070
G1 X26.057 Y124.885 E0.05286
G1 X25.717 Y124.855 E0.01070
G1 X25.370 Y124.762 E0.01127
G1 X25.044 Y124.610 E0.01127
G1 X24.750 Y124.404 E0.01127
G1 X24.496 Y124.150 E0.01127
G1 X24.290 Y123.856 E0.01127
G1 X24.138 Y123.530 E0.01127
G1 X24.045 Y123.183 E0.01127
G1 X24.013 Y122.825 E0.01127
G1 X24.045 Y122.467 E0.01127
G1 X24.138 Y122.120 E0.01127
G1 X24.290 Y121.794 E0.01127
G1 X24.496 Y121.500 E0.01127
G1 X24.750 Y121.246 E0.01127
G1 X25.044 Y121.040 E0.01127
G1 X25.370 Y120.888 E0.01127
G1 X25.717 Y120.795 E0.01127
G1 X26.057 Y120.765 E0.01070
G1 X27.743 Y120.765 E0.05286
G1 X27.996 Y120.787 E0.00798
M204 S1250
G1 X28.303 Y120.496 F9000.000
G1 E-2.24000 F2400.000
;WIPE_START
G1 F7200.000
G1 X28.430 Y120.888 E-0.14101
G1 X28.756 Y121.040 E-0.11380
G1 X29.050 Y121.246 E-0.11380
G1 X29.304 Y121.500 E-0.11379
G1 X29.510 Y121.794 E-0.11380
G1 X29.662 Y122.120 E-0.11380
G1 X29.755 Y122.467 E-0.11380
G1 X29.780 Y122.745 E-0.08822
;WIPE_END
G1 E-0.04800 F2400.000
G1 Z0.400 F9000.000
G1 X149.835 Y122.825
G1 Z0.200
G1 E3.20000 F1500.000
M204 S800
;TYPE:Perimeter
G1 F1200.000
G1 X149.872 Y122.401 E0.01334
G1 X149.982 Y121.990 E0.01334
G1 X150.162 Y121.605 E0.01334
G1 X150.388 Y121.282 E0.01236
G1 X150.703 Y120.958 E0.01417
G1 X151.055 Y120.712 E0.01346
G1 X151.440 Y120.532 E0.01334
G1 X151.851 Y120.422 E0.01334
G1 X152.241 Y120.388 E0.01225
G1 X153.959 Y120.388 E0.05389
G1 X154.349 Y120.422 E0.01225
G1 X154.760 Y120.532 E0.01334
G1 X155.145 Y120.712 E0.01334
G1 X155.493 Y120.956 E0.01334
G1 X155.794 Y121.257 E0.01334
G1 X156.038 Y121.605 E0.01334
G1 X156.218 Y121.990 E0.01334
G1 X156.328 Y122.401 E0.01334
G1 X156.365 Y122.825 E0.01334
G1 X156.328 Y123.249 E0.01334
G1 X156.218 Y123.660 E0.01334
G1 X156.038 Y124.045 E0.01334
G1 X155.794 Y124.393 E0.01334
G1 X155.493 Y124.694 E0.01334
G1 X155.145 Y124.938 E0.01334
G1 X154.760 Y125.118 E0.01334
G1 X154.349 Y125.228 E0.01334
G1 X153.959 Y125.262 E0.01225
G1 X152.241 Y125.262 E0.05389
G1 X151.851 Y125.228 E0.01225
G1 X151.440 Y125.118 E0.01334
G1 X151.055 Y124.938 E0.01334
G1 X150.707 Y124.694 E0.01334
G1 X150.406 Y124.393 E0.01334
G1 X150.162 Y124.045 E0.01334
G1 X149.982 Y123.660 E0.01334
G1 X149.872 Y123.249 E0.01334
G1 X149.840 Y122.885 E0.01145
M204 S1250
G1 X150.216 Y122.852 F9000.000
M204 S800
;TYPE:External perimeter
G1 F1200.000
G1 X150.245 Y122.467 E0.01210
G1 X150.338 Y122.120 E0.01127
G1 X150.490 Y121.794 E0.01127
G1 X150.679 Y121.523 E0.01037
G1 X150.949 Y121.247 E0.01210
G1 X151.244 Y121.040 E0.01131
G1 X151.570 Y120.888 E0.01127
G1 X151.917 Y120.795 E0.01127
G1 X152.257 Y120.765 E0.01070
G1 X153.943 Y120.765 E0.05286
G1 X154.283 Y120.795 E0.01070
G1 X154.630 Y120.888 E0.01127
G1 X154.956 Y121.040 E0.01127
G1 X155.250 Y121.246 E0.01127
G1 X155.504 Y121.500 E0.01127
G1 X155.710 Y121.794 E0.01127
G1 X155.862 Y122.120 E0.01127
G1 X155.955 Y122.467 E0.01127
G1 X155.987 Y122.825 E0.01127
G1 X155.955 Y123.183 E0.01127
G1 X155.862 Y123.530 E0.01127
G1 X155.710 Y123.856 E0.01127
G1 X155.504 Y124.150 E0.01127
G1 X155.250 Y124.404 E0.01127
G1 X154.956 Y124.610 E0.01127
G1 X154.630 Y124.762 E0.01127
G1 X154.283 Y124.855 E0.01127
G1 X153.943 Y124.885 E0.01070
G1 X152.257 Y124.885 E0.05286
G1 X151.917 Y124.855 E0.01070
G1 X151.570 Y124.762 E0.01127
G1 X151.244 Y124.610 E0.01127
G1 X150.950 Y124.404 E0.01127
G1 X150.696 Y124.150 E0.01127
G1 X150.490 Y123.856 E0.01127
G1 X150.338 Y123.530 E0.01127
G1 X150.245 Y123.183 E0.01127
G1 X150.221 Y122.912 E0.00854
M204 S1250
G1 X149.880 Y122.662 F9000.000
G1 E-2.24000 F2400.000
;WIPE_START
G1 F7200.000
G1 X150.245 Y122.467 E-0.14101
G1 X150.338 Y122.120 E-0.11380
G1 X150.490 Y121.794 E-0.11380
G1 X150.679 Y121.523 E-0.10477
G1 X150.949 Y121.247 E-0.12225
G1 X151.244 Y121.040 E-0.11425
G1 X151.570 Y120.888 E-0.11380
G1 X151.839 Y120.816 E-0.08834
;WIPE_END
G1 E-0.04800 F2400.000
G1 Z0.400 F9000.000
G1 X151.851 Y59.578
G1 Z0.200
G1 E3.20000 F1500.000
M204 S800
;TYPE:Perimeter
G1 F1200.000
